!!!!SEGMENT: pl-sa--207-a-vi-11--001-003_pych-leopold--passio-domini-nostri-pars-3tia.krn
!!!cenid: 17xx:375
!!!COM: Pych, Leopold
!!!COM-rismID: pe30018039
!!!CDT: <1758->1774
!!!CNT:
!!!OPR: Passio Domini nostri
!!!OTL: Pars 3tia
!!!OMV: 003
!!!PDT: 1778
!!!AGN: Sacred
!!!YEC: Copyright 2022 Narodowy Instytut Fryderyka Chopina (https://polishscores.org)
!!!YEM: License CC-BY-4.0 (https://creativecommons.org/licenses/by/4.0)
!!!SMS-siglum: PL-SA
!!!SMS-shelfmark: 207/A VI 11
!!!SMS-shelfwork: 001-003 M
!!!NIFC-rismSourceID: 1001077266
!!!NIFC-rismChildID: 1001077266
!!!NIFC-islandoraID: none
!!!URL-pdf-islandora:
!!!URL-scan: https://bc.bdsandomierz.pl/dlibra/publication/1563/edition/1531/content @EN{Scan in the Sandomierz Diocese Digital Library} @PL{Skany w portalu Cyfrowa Biblioteka Diecezjalna w Sandomierzu}
!!!IIIF:
!!!ONB-nifc: UWAGA: części: Pars 1ma, Pars 2da, Pars 3tia
!!!AIN: 1 bass 2 cor 1 oboe 1 organ 1 soprn 2 violn
!!!OMD:
!!!OMD-mod: Tardissime
!!!key: F
**kern	**fba	**dynam	**kern	**dynam	**kern	**dynam	**kern	**text	**text	**mod-text	**kern	**kern	**dynam	**kern	**dynam	**kern	**dynam
*	*	*	*group3	*	*group3	*	*group2	*	*	*	*group2	*group1	*	*group1	*	*	*
*part8	*part8	*part8	*part7	*part7	*part6	*part6	*part5	*part5	*part5	*part5	*part4	*part3	*part3	*part2	*part2	*part1	*part1
*staff8	*staff8	*staff8	*staff7	*staff7	*staff6	*staff6	*staff5	*staff5	*staff5	*staff5	*staff4	*staff3	*staff3	*staff2	*staff2	*staff1	*staff1
*I"Fundamento	*	*	*I"Violino Secundo	*	*I"Violino Primo	*	*I"Baſso	*	*	*	*I"Canto	*I"Cornu 2do in F:	*	*I"Cornu 1mo in F:	*	*I"Oboe Solo	*
*mI"Organo	*	*	*mI"Violino II	*	*mI"Violino I	*	*mI"Basso	*	*	*	*mI"Soprano	*mI"Corno II in F	*	*mI"Corno I in F	*	*	*
*I'org	*	*	*I'vl 2	*	*I'vl 1	*	*I'B	*	*	*	*I'S	*I'cor 2	*	*I'cor 1	*	*I'ob	*
*Iorgan	*	*	*Ivioln	*	*Ivioln	*	*Ibass	*	*	*	*Isoprn	*Icor	*	*Icor	*	*Ioboe	*
*ICklav	*	*	*ICstr	*	*ICstr	*	*ICvox	*	*	*	*ICvox	*ICbras	*	*ICbras	*	*ICww	*
*IGcont	*	*	*	*	*	*	*	*	*	*	*	*	*	*	*	*	*
*	*	*	*	*	*	*	*	*	*	*	*tacet	*	*	*	*	*	*
*clefF4	*	*	*clefG2	*	*clefG2	*	*clefF4	*	*	*	*	*clefG2	*	*clefG2	*	*clefG2	*
*	*	*	*	*	*	*	*	*	*	*	*	*ITrd4c7	*	*ITrd4c7	*	*	*
*k[b-]	*	*	*k[b-]	*	*k[b-]	*	*k[b-]	*	*	*	*	*k[b-]	*	*k[b-]	*	*k[b-]	*
*F:	*	*	*F:	*	*F:	*	*F:	*	*	*	*	*	*	*	*	*F:	*
*M4/4	*	*	*M4/4	*	*M4/4	*	*M4/4	*	*	*	*	*M4/4	*	*M4/4	*	*M4/4	*
*met(C.)	*	*	*met(c)	*	*met(c)	*	*met(c)	*	*	*	*	*met(c)	*	*met(C.)	*	*met(C.)	*
*mmet(c)	*	*	*mmet(c)	*	*mmet(c)	*	*mmet(c)	*	*	*	*	*mmet(c)	*	*mmet(c)	*	*mmet(c)	*
*MM50	*	*	*MM50	*	*MM50	*	*MM50	*	*	*	*	*MM50	*	*MM50	*	*MM50	*
=	=	=	=	=	=	=	=	=	=	=	=	=	=	=	=	=	=
!!LO:TX:a:t= :mod=Pars 3tia
*all\right	*	*	*all\right	*	*all\right	*	*all\right	*	*	*	*	*all\right	*	*all\right	*	*	*
!LO:TX:i:a:t=Tardiſſime:mod=	!	!	!LO:TX:i:a:t=Tardiſsime:mod=	!	!LO:TX:i:a:t=Tardiſſime:mod=	!	!LO:TX:i:a:t=Tardiſsime:mod=	!	!	!	!LO:TX:t=P:problem:wg RISM "S part missing"	!	!	!	!	!LO:TX:t=P:problem:wg RISM "ob solo part written with another hand than the remaining parts"	!
!LO:TX:i:a:rj:t=Pars 3tia:mod=	!	!	!LO:TX:i:a:rj:t=Pars 3tia:mod=	!	!LO:TX:i:a:rj:t=Pars 3tia:mod=	!	!LO:TX:i:a:rj:t=Pars 3tia:mod=	!	!	!	!	!LO:TX:i:a:rj:t=Pars 3tia:mod=	!	!LO:TX:i:a:rj:t=Pars = 1mo 3tia:mod=	!	!LO:TX:i:a:rj:t=Pars 3tia:mod=	!
8F\	.	.	8a/	.	8cc\	.	8F\	O-	.	O-	8ryy	8a\	.	8cc\	.	8cc\	.
=1	=1	=1	=1	=1	=1	=1	=1	=1	=1	=1	=1	=1	=1	=1	=1	=1	=1
8F\L	.	.	8a/L	.	4.cc\	.	8F\	-ra-	.	-ra-	1ryy	4.a\	.	4.cc\	.	4.cc\	.
8G\	.	.	8e/	.	.	.	8G\	-bat	.	-bat	.	.	.	.	.	.	.
8A\	.	.	8f/	.	.	.	8A\	au-	.	au-	.	.	.	.	.	.	.
.	.	.	.	.	16qqb-/	.	.	.	.	.	.	16qqg/	.	16qqb-/	.	.	.
8F\J	.	.	8c/J	.	8a/	.	8F\	-tem	.	-tem	.	8f\	.	8a\	.	8aa\	.
.	.	.	.	.	.	.	.	.	.	.	.	(<16qqg/LL	.	(16qqb-/LL	.	.	.
.	.	.	.	.	.	.	.	.	.	.	.	16qqa/JJ	.	16qqcc/JJ	.	.	.
4B-\	.	.	4f/	.	4dd\	.	4B-\	Je-	.	Je-	.	4b-\)	.	4dd\)	.	4dd\	.
4F\	.	.	4a/	.	4cc\	.	4F\	-suſ	.	-sus	.	4a\	.	4cc\	.	4cc\	.
=2	=2	=2	=2	=2	=2	=2	=2	=2	=2	=2	=2	=2	=2	=2	=2	=2	=2
8F\L	.	.	16c/KL	.	16f/KL	.	8F\	pro	.	pro	1ryy	8r	.	8r	.	16f/KL	.
.	.	.	8f/	.	8a/	.	.	.	.	.	.	.	.	.	.	8a/	.
!	!	!	!	!	!	!	!	!LO:SIC:v:s=cru-	!	!LO:SIC:v:s=cru-	!	!	!	!	!	!	!
8F\	.	.	.	.	.	.	8F\	cha-	.	cha-	.	16f\LL	.	16f\LL	.	.	.
.	.	.	8a/	.	8cc/	.	.	.	.	.	.	16f\JJ	.	16f\JJ	.	8cc/	.
!	!	!	!	!	!	!	!	!LO:SIC:v:s=-ci-	!	!LO:SIC:v:s=-ci-	!	!	!	!	!	!	!
8A\	.	.	.	.	.	.	8A\	-i-	.	-i-	.	8f\L	.	8f\L	.	.	.
.	.	.	8cc/	.	8ff/	.	.	.	.	.	.	.	.	.	.	8ff/	.
8F\J	.	.	.	.	.	.	8A\	-fi-	.	-fi-	.	8f\J	.	8f\J	.	.	.
.	.	.	16a/Jk	.	16cc/Jk	.	.	.	.	.	.	.	.	.	.	16cc/Jk	.
4B-\	.	.	4b-/	.	4dd\	.	8.B-\	-gen-	.	-gen-	.	4f\	.	4f\	.	4dd\	.
.	.	.	.	.	.	.	16B-\	-ti-	.	-ti-	.	.	.	.	.	.	.
8F\L	.	.	4a/	.	4cc\	.	8A\	-bus	.	-bus	.	8r	.	8r	.	4cc\	.
8F#X\J	.	.	.	.	.	.	8A\	ſe	.	se	.	8a\	.	8cc\	.	.	.
=3	=3	=3	=3	=3	=3	=3	=3	=3	=3	=3	=3	=3	=3	=3	=3	=3	=3
!	!	!	!	!	!	!	!	!	!	!	!	!LO:MO:null:mod=8qqa	!	!	!	!	!
.	.	.	.	.	.	.	.	.	.	.	.	.	.	8qqcc/	.	.	.
*2\right	*	*	*	*	*	*	*2\right	*	*	*	*	*2\right	*	*2\right	*	*2\right	*
!	!	!	!	!	!	!	!	!	!	!	!	!LO:SIC:s=2gT	!	!	!	!	!
2G\	X -	.	2d/	.	2b-/	.	2G\	di-	.	di-	1ryy	2g\	.	2b-T>\	.	2bb-\	.
2D;>/	X #	.	2f#X;>/	.	2a;</	.	2D;>\	-cens	.	-cens:	.	2a;>\	.	2a;>\	.	2aa;>\	.
=4	=4	=4	=4	=4	=4	=4	=4	=4	=4	=4	=4	=4	=4	=4	=4	=4	=4
4B-\	X 3	.	4dd\	.	4ff\	.	4B-\	Pa-	.	"Pa-	1ryy	8r	.	8r	.	4ff\	.
!	!	!	!	!	!	!	!	!	!	!	!	!LO:SIC:s=8fL|	!	!	!	!	!
.	.	.	.	.	.	.	.	.	.	.	.	8f\L	.	8f|>\L	.	.	.
!	!	!	!	!	!	!	!	!	!	!	!	!LO:SIC:s=8f|	!	!	!	!	!
4B-\	.	.	4dd\	.	4ff\	.	4B-\	-ter	.	-ter	.	8f\	.	8f|>\	.	4ff\	.
!	!	!	!	!	!	!	!	!	!	!	!	!LO:SIC:s=8fJ|	!	!	!	!	!
.	.	.	.	.	.	.	.	.	.	.	.	8f\J	.	8f|>\J	.	.	.
8r	.	.	8r	.	8r	.	8r	.	.	.	.	4f\	.	4f\	.	8r	.
!LO:SIC:s=8B-L|	!	!	!LO:SIC:s=8ddL|	!	!LO:SIC:s=8ffL|	!	!	!	!	!	!	!	!	!	!	!LO:SIC:s=8ffL|	!
8B-\L	.	.	8dd\L	.	8ff\L	.	8B-\	di-	.	di-	.	.	.	.	.	8ff\L	.
!LO:SIC:s=8B-|	!	!	!LO:SIC:s=8dd|	!	!LO:SIC:s=8ff|	!	!	!	!	!	!	!	!	!	!	!LO:SIC:s=8ff|	!
8B-\	.	.	8dd\	.	8ff\	.	8B-\	-mit-	.	-mit-	.	4r	.	4r	.	8ff\	.
!LO:SIC:s=8B-J|	!	!	!LO:SIC:s=8ddJ|	!	!LO:SIC:s=8ffJ|	!	!	!	!	!	!	!	!	!	!	!LO:SIC:s=8ffJ|	!
8B-\J	.	.	8dd\J	.	8ff\J	.	8B-\	-te	.	-te	.	.	.	.	.	8ff\J	.
!LO:LB:g=original	!	!	!LO:LB:g=original	!	!LO:LB:g=original	!	!LO:LB:g=original	!	!	!	!	!	!	!LO:LB:g=original	!	!	!
=5	=5	=5	=5	=5	=5	=5	=5	=5	=5	=5	=5	=5	=5	=5	=5	=5	=5
4G\	X -6	.	4b-/	.	4gg\	.	4G\	il-	.	il-	1ryy	4g\	.	4b-\	.	4gg\	.
4G\	.	.	8r	.	8r	.	4G\	-lis	.	-lis	.	4r	.	4r	.	8r	.
.	.	.	8bb-\	.	8bb-\	.	.	.	.	.	.	.	.	.	.	8bb-\	.
!	!	!	!	!	!LO:SIC:s=8ggL|	!	!	!	!	!	!	!	!	!	!	!LO:SIC:s=8ggL|	!
4r	.	.	8gg|>\L	.	8gg\L	.	4r	.	.	.	.	8r	.	8r	.	8gg\L	.
!	!	!	!	!	!LO:TX:a:t=P:problem=bemol również nad nutą	!	!	!	!	!	!	!	!	!	!	!	!
!	!	!	!	!	!LO:SIC:s=8ee-|	!	!	!	!	!	!	!LO:SIC:s=8gL|	!	!LO:SIC:s=8b-L|	!	!LO:SIC:s=8ee-|	!
.	.	.	8ee-X|>\	.	8ee-X\	.	.	.	.	.	.	8g\L	.	8b-\L	.	8ee-X\	.
!LO:TX:t=P:problem=w bc podłużna linia do 8G (w takcie 6. - pierwsza nuta))	!	!	!	!	!LO:SIC:s=8b-|	!	!	!	!	!	!	!LO:SIC:s=8g|	!	!LO:SIC:s=8b-|	!	!LO:SIC:s=8b-|	!
8G\L	X -6_	.	8b-|>\	.	8b-\	.	8G\	qui-	.	qui-	.	8g\	.	8b-\	.	8b-\	.
!	!	!	!	!	!LO:SIC:s=8gJ|	!	!	!	!	!	!	!LO:SIC:s=8gJ|	!	!LO:SIC:s=8b-J|	!	!LO:SIC:s=8ggJ|	!
8G\J	.	.	8g|>\J	.	8g\J	.	8G\	-a	.	-a	.	8g\J	.	8b-\J	.	8gg\J	.
!	!	!	!	!	!	!	!	!	!	!	!	!LO:LB:g=original	!	!	!	!	!
=6	=6	=6	=6	=6	=6	=6	=6	=6	=6	=6	=6	=6	=6	=6	=6	=6	=6
8G\L	x	.	4e-X/	.	4e-X/	.	8.G\	ne-	.	ne-	1ryy	4g\	.	4b-\	.	4ee-X\	.
8G\	.	.	.	.	.	.	.	.	.	.	.	.	.	.	.	.	.
.	.	.	.	.	.	.	16G\	-sci-	.	-sci-	.	.	.	.	.	.	.
8G\	.	.	4r	.	4r	.	8G\	-unt	.	-unt	.	4r	.	4r	.	4r	.
8G#X\J	X -7	.	.	.	.	.	8G#X\	quid	.	quid	.	.	.	.	.	.	.
8.A\L	.	.	8r	.	8r	.	8.A\	fa-	.	fa-	.	8r	.	8r	.	8r	.
!	!	!	!	!	!	!	!	!	!	!	!	!	!	!LO:MO:mod=16ALL	!	!	!
.	.	.	8cc#X\L	.	8een\L	.	.	.	.	.	.	16A/LL	.	8A/L	.	8een\L	.
!	!	!	!	!	!	!	!	!	!	!	!	!LO:SIC:s=16AJk	!	!LO:MO:null:mod=16AJk	!	!	!
16A\Jk	.	.	.	.	.	.	16A\	-ci-	.	-ci-	.	16A/JJ	.	.	.	.	.
!	!	!	!	!	!	!	!	!	!	!	!	!LO:SIC:s=8A	!	!	!	!	!
4A\	.	.	8cc#\	.	8ee\	.	4A\	-unt	.	-unt."	.	8A/L	.	8A/	.	8ee\	.
.	.	.	8cc#\J	.	8ee\J	.	.	.	.	.	.	8A/J	.	8A/J	.	8ee\J	.
!	!	!	!	!	!	!	!	!	!	!	!	!	!	!	!	!LO:LB:g=original	!
=7	=7	=7	=7	=7	=7	=7	=7	=7	=7	=7	=7	=7	=7	=7	=7	=7	=7
4A\	X #	.	4cc#X\	.	4ee\	.	4c#X\	a-	.	A-	1ryy	4A/	.	4A/	.	4ee\	.
8A\L	.	.	8r	.	8r	.	8c#\	-it	.	-it	.	4r	.	4r	.	8r	.
8A\J	.	.	8a/	.	8cc#X\	.	8c#\	ad	.	ad	.	.	.	.	.	8cc#X\	.
4Bn\	.	.	4bn/	.	8dd\L	.	4Bn\	e-	.	e-	.	2rg	.	2r	.	8dd\L	.
.	.	.	.	.	8gg\	.	.	.	.	.	.	.	.	.	.	8gg\	.
4c#X\	.	.	4a/	.	8ee\	.	4c#X\	-um	.	-um	.	.	.	.	.	8ee\	.
.	.	.	.	.	8aa\J	.	.	.	.	.	.	.	.	.	.	8aa\J	.
=8	=8	=8	=8	=8	=8	=8	=8	=8	=8	=8	=8	=8	=8	=8	=8	=8	=8
4d\	.	.	4a/	.	8ff\L	.	4d\	La-	.	La-	1ryy	1r	.	1r	.	8ff\L	.
!	!	!	!	!	!	!	!	!	!	!	!	!	!	!	!	!LO:SIC:s=8dd	!
.	.	.	.	.	8dd\	.	.	.	.	.	.	.	.	.	.	8dd\J	.
!	!	!	!	!	!	!	!	!	!	!	!	!	!	!	!	!LO:SIC:s=8aa	!
8d\L	.	.	8r	.	8a\	.	8d\	-tro	.	-tro	.	.	.	.	.	8aa\L	.
8d\J	.	.	8a/	.	8f\J	.	8d\	ad	.	ad	.	.	.	.	.	8ff\J	.
4B-\	.	.	4f/	.	8d/	.	4B-\	dex-	.	dex-	.	.	.	.	.	8dd\	.
.	.	.	.	.	4dd\	.	.	.	.	.	.	.	.	.	.	4dd\	.
!LO:SIC:v:s=4G\	!	!	!	!	!	!	!	!	!	!	!	!	!	!	!	!	!
4F\	.	.	4b-/	.	.	.	8G\	-te-	.	-te-	.	.	.	.	.	.	.
.	.	.	.	.	16ee\LL	.	8G\	-ram	.	-ram	.	.	.	.	.	16ee\LL	.
.	.	.	.	.	16dd\JJ	.	.	.	.	.	.	.	.	.	.	16dd\JJ	.
!LO:LB:g=original	!	!	!	!	!LO:LB:g=original	!	!	!	!	!	!	!	!	!	!	!	!
=9	=9	=9	=9	=9	=9	=9	=9	=9	=9	=9	=9	=9	=9	=9	=9	=9	=9
.	.	.	.	.	8qqdd/	.	.	.	.	.	.	.	.	.	.	8qqdd/	.
4A\	X #	.	4e/	.	4cc#X\	.	4A\	pen-	.	pen-	1ryy	8A/L	.	8A/L	.	4cc#X\	.
.	.	.	.	.	.	.	.	.	.	.	.	16A/L	.	16A/L	.	.	.
.	.	.	.	.	.	.	.	.	.	.	.	16A/JJ	.	16A/JJ	.	.	.
4A\	X :	.	4e/	.	4cc#\	.	4A\	-denſ	.	-dens.	.	8A/L	.	8A/L	.	4cc#\	.
.	.	.	.	.	.	.	.	.	.	.	.	8A/J	.	8A/J	.	.	.
*	*	*	*custos:d	*	*	*	*	*	*	*	*	*	*	*	*	*	*
!	!	!LO:MO:null:mod=!LO&colon;DY&colon;ed=brack	!	!	!	!	!	!	!	!	!	!	!	!	!	!	!LO:MO:null:mod=!LO&colon;DY&colon;ed=brack
!	!	!null	!	!	!	!	!	!	!	!	!	!	!	!	!	!	!null
!	!	!LO:MO:null:mod=p	!LO:LB:g=original	!LO:DY:a:t=pia&colon;	!	!LO:DY:a:t=piano	!	!	!	!	!	!	!	!	!	!	!LO:MO:null:mod=p
8D\L	.	.	8d/L	p	8d/L	p	2rBB	.	.	.	.	4A/	.	4A/	.	8dd\L	.
!LO:TX:a:i:t=Solo:mod=	!	!	!	!	!LO:SIC:s=8f	!	!	!	!	!	!	!	!	!	!	!	!
8F\	.	.	8f/	.	8f/J	.	.	.	.	.	.	.	.	.	.	8ff\	.
!LO:SIC:v:s=8E\	!	!	!	!	!LO:SIC:s=8e	!	!	!	!	!	!	!	!	!	!	!	!
8D\	.	.	8e/	.	8e/L	.	.	.	.	.	.	4r	.	4r	.	8ee\	.
8D\J	.	.	8d/J	.	8d/J	.	.	.	.	.	.	.	.	.	.	8dd\J	.
!	!	!	!	!	!	!	!LO:LB:g=original	!	!	!	!	!	!	!	!	!	!
=10	=10	=10	=10	=10	=10	=10	=10	=10	=10	=10	=10	=10	=10	=10	=10	=10	=10
!LO:TX:t=P:problem=mixed beam	!	!	!	!	!	!	!LO:TX:a:t=8:mod=	!	!	!	!	!LO:MO:mod=1r	!	!LO:MO:mod=1r	!	!	!
8C#X/L	.	.	8c#X/L	.	8c#X/L	.	00r	.	.	.	1ryy	00r;>	.	00r;>	.	8cc#X\L	.
!	!	!	!LO:SIC:v:s=8Bn/	!	!	!	!	!	!	!	!	!	!	!	!	!LO:SIC:v:s=8bn	!
8BBn/	.	.	8B-/	.	8Bn/	.	.	.	.	.	.	.	.	.	.	8b-\J	.
!	!	!	!	!	!	!	!	!	!	!	!	!	!	!	!	!LO:SIC:s=8a	!
8AA/	.	.	8A/	.	8A/	.	.	.	.	.	.	.	.	.	.	8aa\L	.
8A\J	.	.	8a/J	.	8a/J	.	.	.	.	.	.	.	.	.	.	8aa\J	.
4d\	.	.	4dd\	.	4dd\	.	.	.	.	.	.	.	.	.	.	4dd\	.
4A\	X #	.	[<4a/	.	4cc#X\	.	.	.	.	.	.	.	.	.	.	4cc#X\	.
=11	=11	=11	=11	=11	=11	=11	=11	=11	=11	=11	=11	=11	=11	=11	=11	=11	=11
*	*	*	*	*	*2\right	*	*	*	*	*	*	*	*	*	*	*	*
!	!	!	!	!	!	!	!	!	!	!	!	!LO:MO:null:mod=1r	!	!LO:MO:null:mod=1r	!	!	!
4A\	.	.	4a/]	.	2dd\	.	.	.	.	.	1ryy	.	.	.	.	2dd\	.
4G#X\	.	.	4g#X/	.	.	.	.	.	.	.	.	.	.	.	.	.	.
4A\	X #	.	4a/	.	4cc#X\	.	.	.	.	.	.	.	.	.	.	4cc#X\	.
4A\	.	.	4a/	.	4a/	.	.	.	.	.	.	.	.	.	.	4a\	.
=12	=12	=12	=12	=12	=12	=12	=12	=12	=12	=12	=12	=12	=12	=12	=12	=12	=12
!	!	!	!LO:SIC:s=4d|	!	!	!	!	!	!	!	!	!LO:MO:null:mod=1r	!	!LO:MO:null:mod=1r	!	!LO:SIC:s=4dd|	!
4D\	.	.	4d/	.	4d|>/	.	.	.	.	.	1ryy	.	.	.	.	4dd\	.
!	!	!	!LO:SIC:s=4e|	!	!	!	!	!	!	!	!	!	!	!	!	!LO:SIC:s=4ee|	!
4E\	X 6	.	4e/	.	4e|>/	.	.	.	.	.	.	.	.	.	.	4ee\	.
!	!	!	!LO:SIC:s=4f|	!	!	!	!	!	!	!	!	!	!	!	!	!LO:SIC:s=4ff|	!
4F\	.	.	4f/	.	4f|>/	.	.	.	.	.	.	.	.	.	.	4ff\	.
!	!	!	!LO:SIC:s=4g|	!	!	!	!	!	!	!	!	!	!	!	!	!LO:SIC:s=4gg|	!
4G\	X 6	.	4gn/	.	4g|>/	.	.	.	.	.	.	.	.	.	.	4gg\	.
=13	=13	=13	=13	=13	=13	=13	=13	=13	=13	=13	=13	=13	=13	=13	=13	=13	=13
!	!	!	!	!	!	!	!	!	!	!	!	!LO:MO:null:mod=1r;	!	!LO:MO:null:mod=1r;	!	!	!
4A\	X #	.	4a/	.	4a/	.	.	.	.	.	1ryy	.	.	.	.	4aa\	.
4AA/	.	.	4A/	.	4A/	.	.	.	.	.	.	.	.	.	.	4a/	.
4D/	.	.	4d/	.	4d/	.	.	.	.	.	.	.	.	.	.	4dd\	.
4r;>	.	.	4r;>	.	4r;>	.	.	.	.	.	.	.	.	.	.	4r;>	.
!LO:LB:g=original	!	!	!	!	!LO:LB:g=original	!	!	!	!	!	!	!	!	!	!	!LO:LB:g=original	!
=14	=14	=14	=14	=14	=14	=14	=14	=14	=14	=14	=14	=14	=14	=14	=14	=14	=14
!	!	!LO:MO:null:mod=!LO&colon;DY&colon;ed=brack	!	!	!	!	!	!	!	!	!	!	!	!	!	!	!
!	!	!null	!	!	!	!	!	!	!	!	!	!	!	!	!	!	!
!	!	!LO:MO:null:mod=p	!	!	!	!	!	!	!	!	!	!LO:MO:mod=1r	!	!LO:MO:mod=1r	!	!	!
4F\	.	.	2rg	.	2rg	.	00r	.	.	.	1ryy	00r;>	.	00r;>	.	2rg	.
8A\L	.	.	.	.	.	.	.	.	.	.	.	.	.	.	.	.	.
8G\J	.	.	.	.	.	.	.	.	.	.	.	.	.	.	.	.	.
!	!	!	!	!	!	!	!	!	!	!	!	!	!	!	!	!	!LO:MO:null:mod=!LO&colon;DY&colon;ed=brack
!	!	!	!	!	!	!	!	!	!	!	!	!	!	!	!	!	!null
!	!	!	!	!LO:MO:null:mod=p	!	!LO:MO:null:mod=p	!	!	!	!	!	!	!	!	!	!	!LO:MO:null:mod=p
4F\	.	.	8a/	.	8ff\	.	.	.	.	.	.	.	.	.	.	8ff\	.
.	.	.	4a/	.	4cc\	.	.	.	.	.	.	.	.	.	.	4cc\	.
!LO:TX:t=P:problem=mixed beam	!	!	!	!	!	!	!	!	!	!	!	!	!	!	!	!	!
8c\L	X 4	.	.	.	.	.	.	.	.	.	.	.	.	.	.	.	.
8C/J	X 3	.	8g/	.	8b-\	.	.	.	.	.	.	.	.	.	.	8b-\	.
!	!	!	!LO:LB:g=original	!	!	!	!	!	!	!	!	!	!	!	!	!	!
=15	=15	=15	=15	=15	=15	=15	=15	=15	=15	=15	=15	=15	=15	=15	=15	=15	=15
!	!	!	!	!	!	!LO:DY:a:t=pia&colon;	!	!	!	!	!	!	!	!	!	!	!
!	!	!	!	!	!	!LO:MO:mod=.	!	!	!	!	!	!LO:MO:null:mod=1r	!	!LO:MO:null:mod=1r	!	!	!
8F\L	.	.	8a/L	.	8a/L	p	.	.	.	.	1ryy	.	.	.	.	8aa\L	.
8F\	.	.	8f/	.	8f/	.	.	.	.	.	.	.	.	.	.	8ff\	.
!	!	!	!	!LO:DY:a:t=piano&colon;	!	!	!	!	!	!	!	!	!	!	!	!	!
!	!	!	!	!LO:MO:mod=.	!	!	!	!	!	!	!	!	!	!	!	!	!
8E\	.	.	8e/	p	8e/	.	.	.	.	.	.	.	.	.	.	8ee\	.
8F\J	.	.	8f/J	.	8f/J	.	.	.	.	.	.	.	.	.	.	8ff\J	.
8D\L	X 6	.	8d/L	.	8d/L	.	.	.	.	.	.	.	.	.	.	8dd\L	.
8E\	.	.	8e/	.	8e/	.	.	.	.	.	.	.	.	.	.	8ee\	.
8F\	.	.	8f/	.	8f/	.	.	.	.	.	.	.	.	.	.	8ff\	.
8D\J	.	.	8d/J	.	8d/J	.	.	.	.	.	.	.	.	.	.	8dd\J	.
=16	=16	=16	=16	=16	=16	=16	=16	=16	=16	=16	=16	=16	=16	=16	=16	=16	=16
!	!	!	!	!	!	!	!	!	!	!	!	!LO:MO:null:mod=1r	!	!LO:MO:null:mod=1r	!	!	!
8BB-/L	.	.	8B-/L	.	8B-/L	.	.	.	.	.	1ryy	.	.	.	.	8bb-\L	.
!	!	!	!	!	!	!	!	!	!	!	!	!	!	!	!	!LO:SIC:s=8gg	!
8GG/	.	.	8G/	.	8G/	.	.	.	.	.	.	.	.	.	.	8gg\J	.
!	!	!	!	!	!	!	!	!	!	!	!	!	!	!	!	!LO:SIC:s=8ccc	!
8C/	.	.	8c/	.	8c/	.	.	.	.	.	.	.	.	.	.	8ccc\L	.
8CC/J	.	.	8c/J	.	8c/J	.	.	.	.	.	.	.	.	.	.	8ccc\J	.
4FF/	.	.	4f/	.	4f/	.	.	.	.	.	.	.	.	.	.	4ff\	.
4r	.	.	4f/	.	4a/	.	.	.	.	.	.	.	.	.	.	4aa\	.
=17	=17	=17	=17	=17	=17	=17	=17	=17	=17	=17	=17	=17	=17	=17	=17	=17	=17
!	!	!	!	!	!	!	!	!	!	!	!	!LO:MO:null:mod=1r	!	!LO:MO:null:mod=1r	!	!	!
2rBB	.	.	8e/L	.	8g/L	.	.	.	.	.	1ryy	.	.	.	.	8gg\L	.
.	.	.	8d/	.	8f/	.	.	.	.	.	.	.	.	.	.	8ff\	.
.	.	.	8c/	.	8e/	.	.	.	.	.	.	.	.	.	.	8ee\	.
.	.	.	8e/J	.	8g/J	.	.	.	.	.	.	.	.	.	.	8gg\J	.
8r	.	.	8d/L	.	8a/L	.	.	.	.	.	.	.	.	.	.	8aa\L	.
!LO:SIC:v:s=8AA/L	!	!	!	!	!LO:SIC:s=8a	!	!	!	!	!	!	!	!	!	!	!LO:SIC:s=8aa	!
8GG/L	X n7	.	8d/	.	8a/J	.	.	.	.	.	.	.	.	.	.	8aa\J	.
!	!	!	!	!	!LO:SIC:s=8g	!	!	!	!	!	!	!	!	!	!	!LO:SIC:s=8gg	!
8BBn/	.	.	8d/	.	8g/L	.	.	.	.	.	.	.	.	.	.	8gg\L	.
8C/J	.	.	8e/J	.	8g/J	.	.	.	.	.	.	.	.	.	.	8gg\J	.
*	*	*	*	*	*custos:a	*	*	*	*	*	*	*	*	*	*	*	*
!LO:LB:g=original	!	!	!	!	!LO:LB:g=original	!	!	!	!	!	!	!	!	!	!	!	!
=18	=18	=18	=18	=18	=18	=18	=18	=18	=18	=18	=18	=18	=18	=18	=18	=18	=18
!LO:TX:t=P:problem=mixed beam	!	!	!	!	!	!	!	!	!	!	!	!	!	!	!	!	!
8F\L	.	.	8f/L	.	8a/L	.	2rBB	.	.	.	1ryy	2rg	.	2rg	.	8aa\L	.
8D\	.	.	8f/J	.	8a/J	.	.	.	.	.	.	.	.	.	.	8aa\J	.
!	!	!	!LO:SIC:s=4gT	!	!	!	!	!	!	!	!	!	!	!	!	!LO:SIC:s=4bbt	!
8G\	X n	.	4g/	.	4bnt>/	.	.	.	.	.	.	.	.	.	.	4bbn\	.
8GG/J	.	.	.	.	.	.	.	.	.	.	.	.	.	.	.	.	.
!	!	!	!	!	!	!LO:DY:a:t=For&colon;	!	!	!	!	!	!	!	!	!	!	!
!	!	!	!	!	!	!LO:MO:mod=.	!	!	!	!	!	!	!	!	!	!	!
4C/	.	.	4g/	.	4cc\	f	4r	.	.	.	.	4r	.	4r	.	4ccc\	.
!	!	!LO:MO:null:mod=!LO&colon;DY&colon;ed=brack	!	!	!	!	!	!	!	!	!	!	!LO:MO:null:mod=!LO&colon;DY&colon;ed=brack	!	!LO:MO:null:mod=!LO&colon;DY&colon;ed=brack	!	!LO:MO:null:mod=!LO&colon;DY&colon;ed=brack
!	!	!null	!	!	!	!	!	!	!	!	!	!	!null	!	!null	!	!null
!	!	!LO:MO:null:mod=f	!	!LO:DY:a:t=For&colon;	!	!LO:MO:null:mod=f	!	!	!	!	!	!	!LO:MO:null:mod=f	!	!LO:MO:null:mod=f	!	!LO:MO:null:mod=f
8c\L	.	.	8ee\L	f	8gg\L	.	8c\	Di-	.	Di-	.	8g\L	.	8g\L	.	8gg\L	.
!	!	!	!LO:TX:a:t=d:mod=	!	!	!	!	!	!	!	!	!	!	!	!	!	!
8Bn\J	.	.	8dd\J	.	8gg\J	.	8Bn\	-xit	.	-xit	.	8g\J	.	8g\J	.	8gg\J	.
!	!	!	!	!	!	!	!	!	!	!	!	!	!	!LO:LB:g=original	!	!	!
=19	=19	=19	=19	=19	=19	=19	=19	=19	=19	=19	=19	=19	=19	=19	=19	=19	=19
!	!	!	!LO:TX:t=P:problem=mixed beam	!	!LO:TX:t=P:problem=mixed beam	!	!	!	!	!	!	!	!	!	!	!	!
8c\L	.	.	8ee\L	.	8gg\L	.	8c\	au-	.	au-	1ryy	4g\	.	8g\	.	8gg\L	.
!	!	!	!LO:SIC:s=8e	!	!	!	!	!	!	!	!	!	!	!	!	!	!
8E\	.	.	8e/J	.	8g/	.	8E\	-tem	.	-tem	.	.	.	4cc\	.	8gg\	.
!	!	!	!LO:SIC:s=8d	!	!	!	!	!	!	!	!	!	!	!	!	!	!
8F\	.	.	8d/L	.	8g/	.	8F\	Ma-	.	Ma-	.	8a\L	.	.	.	8gg\	.
8G\J	.	.	8d/J	.	8g/J	.	8G\	-tri	.	-tri	.	8g\J	.	8bX\	.	8gg\J	.
!	!	!	!LO:TX:t=P:problem=mixed beam	!	!LO:TX:t=P:problem=mixed beam	!	!	!	!	!	!	!	!	!	!	!	!
4C/	.	.	8e/L	.	8g/L	.	4C/	su-	.	su-	.	4g\	.	4cc\	.	8gg\L	.
.	.	.	8ee\	.	8gg\	.	.	.	.	.	.	.	.	.	.	8gg\	.
8r	.	.	8ee\	.	8gg\	.	4C/	-ae	.	-ae:	.	8r	.	8r	.	8gg\	.
16c\LL	.	.	8ee\J	.	8gg\J	.	.	.	.	.	.	8c/	.	8g\	.	8gg\J	.
16B-X\JJ	.	.	.	.	.	.	.	.	.	.	.	.	.	.	.	.	.
!	!	!	!LO:LB:g=original	!	!	!	!	!	!	!	!	!LO:LB:g=original	!	!	!	!LO:LB:g=original	!
=20	=20	=20	=20	=20	=20	=20	=20	=20	=20	=20	=20	=20	=20	=20	=20	=20	=20
8.A\L	X 6_	.	4cc\	.	4aa\	.	8.A\	Mu-	.	"Mu-	1ryy	8.f\L	.	8.a\L	.	4aa\	.
16A\Jk	x	.	.	.	.	.	16A\	-li-	.	-li-	.	16f\Jk	.	16a\Jk	.	.	.
4A\	.	.	8r	.	8r	.	4A\	-er	.	-er,	.	4f\	.	4a\	.	8r	.
.	.	.	8f/	.	8f/	.	.	.	.	.	.	.	.	.	.	8ff\	.
4r	.	.	8a/L	.	8a\L	.	4r	.	.	.	.	4r	.	4r	.	8a\L	.
.	.	.	8cc/J	.	8cc\J	.	.	.	.	.	.	.	.	.	.	8cc\J	.
4A\	.	.	4cc/	.	8ff\L	.	8A\	ec-	.	ec-	.	4f\	.	4cc\	.	8ff\L	.
.	.	.	.	.	8ee\J	.	8A\	-ce	.	-ce	.	.	.	.	.	8ee\J	.
=21	=21	=21	=21	=21	=21	=21	=21	=21	=21	=21	=21	=21	=21	=21	=21	=21	=21
4B-\	.	.	4f/	.	4dd\	.	4B-\	fi-	.	fi-	1ryy	4f\	.	4dd\	.	4dd\	.
4G\	X 6	.	4b-/	.	8ee\L	.	8G\	-li-	.	-li-	.	4g\	.	4b-\	.	8ee\L	.
.	X 5	.	.	.	8dd\J	.	8G\	-us	.	-us	.	.	.	.	.	8dd\J	.
4.A\	X #	.	8e/	.	8cc#X\	.	4A\	tu-	.	tu-	.	4a\	.	4a\	.	8cc#X\	.
.	.	.	4cc#X\	.	4aa\	.	.	.	.	.	.	.	.	.	.	4aa\	.
.	.	.	.	.	.	.	4A\	-uſ	.	-us."	.	4r	.	4r	.	.	.
16A\LL	.	.	8a/	.	8cc#\	.	.	.	.	.	.	.	.	.	.	8cc#\	.
16G\JJ	.	.	.	.	.	.	.	.	.	.	.	.	.	.	.	.	.
!LO:LB:g=original	!	!	!	!	!LO:LB:g=original	!	!LO:LB:g=original	!	!	!	!	!	!	!	!	!	!
=22	=22	=22	=22	=22	=22	=22	=22	=22	=22	=22	=22	=22	=22	=22	=22	=22	=22
4F\	.	.	8a/L	.	8dd\L	.	8r	.	.	.	1ryy	4a\	.	4a\	.	8dd\L	.
.	.	.	8a/	.	8dd\	.	8F\	de-	.	De-	.	.	.	.	.	8dd\	.
8F\L	.	.	8a/	.	8dd\	.	8F\	-in-	.	-in-	.	4r	.	4r	.	8dd\	.
8D\J	.	.	8a/J	.	8dd\J	.	8F\	-de	.	-de	.	.	.	.	.	8dd\J	.
8G\L	.	.	8b-/L	.	8dd\L	.	4G\	di-	.	di-	.	4g\	.	4b-\	.	8dd\L	.
8G\	.	.	8b-/	.	8dd\	.	.	.	.	.	.	.	.	.	.	8dd\	.
8G\	.	.	8b-/	.	8dd\	.	8G\	-xit	.	-xit	.	4r	.	4r	.	8dd\	.
8F\J	.	.	8b-/J	.	8dd\J	.	8F\	di-	.	di-	.	.	.	.	.	8dd\J	.
=23	=23	=23	=23	=23	=23	=23	=23	=23	=23	=23	=23	=23	=23	=23	=23	=23	=23
8.E\L	.	.	8g/L	.	8cc\L	.	8.E\	-sci-	.	-sci-	1ryy	4c/	.	4g\	.	8cc\L	.
.	.	.	8g/	.	8cc\	.	.	.	.	.	.	.	.	.	.	8cc\	.
16E\Jk	.	.	.	.	.	.	16E\	-pu-	.	-pu-	.	.	.	.	.	.	.
4E\	.	.	8g/	.	8cc\	.	4E\	-lo	.	-lo:	.	4r	.	4r	.	8cc\	.
.	.	.	8g/J	.	8cc\J	.	.	.	.	.	.	.	.	.	.	8cc\J	.
4C/	.	.	4e/	.	4g/	.	4E\	ec-	.	"Ec-	.	4r	.	4r	.	4gg\	.
4C/	.	.	4e/	.	4g/	.	4E\	-ce	.	-ce	.	8r	.	8r	.	4gg\	.
.	.	.	.	.	.	.	.	.	.	.	.	8c/	.	8g\	.	.	.
!	!	!	!	!	!	!	!	!	!	!	!	!	!	!LO:LB:g=original	!	!	!
=24	=24	=24	=24	=24	=24	=24	=24	=24	=24	=24	=24	=24	=24	=24	=24	=24	=24
!	!	!	!	!	!	!	!	!	!	!	!	!	!	!	!	!LO:MO:null:mod=(16qqaaLL	!
.	.	.	(<16qqf/LL	.	(<16qqa/LL	.	.	.	.	.	.	.	.	.	.	.	.
!	!	!	!	!	!	!	!	!	!	!	!	!	!	!	!	!LO:MO:null:mod=16qqbb-JJ	!
.	.	.	16qqg/JJ	.	16qqb-/JJ	.	.	.	.	.	.	.	.	.	.	.	.
!	!	!	!	!	!	!	!	!	!	!	!	!	!	!	!	!LO:SIC:s=4ccc)	!
4F\	.	.	4a/)	.	4cc\)	.	4F\	Ma-	.	Ma-	1ryy	8f\L	.	8a\L	.	4ccc\	.
.	.	.	.	.	.	.	.	.	.	.	.	8a\	.	8cc\	.	.	.
4BB-/	.	.	8g/L	.	8b-\L	.	4BB-/	-ter	.	-ter	.	8g\	.	8b-\	.	8bb-\L	.
.	.	.	8f/J	.	8a\J	.	.	.	.	.	.	8f\J	.	8a\J	.	8aa\J	.
!	!	!	!LO:MO:null:mod=8qqf	!	!LO:SIC:s=8qqa	!	!	!	!	!	!	!	!	!	!	!	!
.	.	.	.	.	(<8qqa/	.	.	.	.	.	.	.	.	8qqa/	.	8qqaa/	.
!	!	!	!LO:SIC:s=2et	!	!LO:SIC:s=2gT	!	!	!	!	!	!	!	!	!	!	!LO:SIC:s=2ggT	!
4C/	.	.	2e/	.	2g/)	.	2C/	tu-	.	tu-	.	4f\	.	2gT>\	.	2gg\	.
4CC/	.	.	.	.	.	.	.	.	.	.	.	4c/	.	.	.	.	.
!	!	!	!LO:LB:g=original	!	!	!	!	!	!	!	!	!	!	!	!	!LO:LB:g=original	!
=25	=25	=25	=25	=25	=25	=25	=25	=25	=25	=25	=25	=25	=25	=25	=25	=25	=25
!	!	!	!	!	!LO:TX:t=P:problem=mixed beam	!	!	!	!	!	!	!	!	!	!	!LO:TX:t=P:problem=mixed beam	!
!	!	!	!	!	!LO:SIC:s=8fL|	!	!	!	!	!	!	!	!	!	!	!LO:SIC:s=8fL|	!
4FF/	.	.	8f|>\L	.	8f/L	.	4FF/	-a	.	-a."	1ryy	4A/	.	4f\	.	8f/L	.
!	!	!	!	!	!	!	!	!	!	!	!	!	!	!	!	!LO:SIC:s=(8ff	!
.	.	.	(>8dd\	.	(>8ff\	.	.	.	.	.	.	.	.	.	.	8ff\	.
!	!	!	!LO:SIC:s=8cc	!	!	!	!	!	!	!	!	!	!	!	!	!	!
4r	.	.	8cc\)	.	8ee\	.	4r	.	.	.	.	4r	.	4r	.	8ee\	.
!	!	!	!LO:SIC:s=8b-J)	!	!	!	!	!	!	!	!	!	!	!	!	!LO:SIC:s=8ddJ)	!
.	.	.	8b-\J	.	8dd\J)	.	.	.	.	.	.	.	.	.	.	8dd\J	.
!	!	!	!LO:TX:t=P:problem=mixed beam	!	!	!	!	!	!	!	!	!LO:SIC:s=(8aL	!	!LO:SIC:s=(8ccL	!	!LO:SIC:s=(8ccL	!
4r	.	.	(<8a/L	.	(>8cc\L	.	2rBB	.	.	.	.	8a\L	.	8cc\L	.	8cc\L	.
.	.	.	8g/	.	8b-\	.	.	.	.	.	.	8g\	.	8b-\	.	8b-\	.
!	!	!	!	!	!	!	!	!	!	!	!	!LO:SIC:s=8f)	!	!LO:SIC:s=8a)	!	!LO:SIC:s=8a)	!
8r	.	.	8f/)	.	8a\)	.	.	.	.	.	.	8f\	.	8a\	.	8a\	.
!	!	!	!	!	!LO:SIC:s=8aaJ|	!	!	!	!	!	!	!LO:SIC:s=8fJ|	!	!LO:SIC:s=8aJ|	!	!LO:SIC:s=8aaJ|	!
8F\	.	.	8ff|>\J	.	8aa\J	.	.	.	.	.	.	8f\J	.	8a\J	.	8aa\J	.
=26	=26	=26	=26	=26	=26	=26	=26	=26	=26	=26	=26	=26	=26	=26	=26	=26	=26
!	!	!	!	!	!	!	!	!	!	!	!	!LO:TX:t=P:problem=mixed beam	!	!LO:SIC:s=16qqb-	!	!LO:MO:null:mod=16qqbb-	!
.	.	.	16qqgg/	.	16qqbb-/	.	.	.	.	.	.	16qqg/	.	8qqb-/	.	.	.
!LO:TX:t=P:problem=mixed beam	!	!	!	!	!	!	!	!	!	!	!	!	!	!	!	!	!
8c\L	6 4	.	8ff\L	.	8aa\L	.	0r	.	.	.	1ryy	8f\L	.	8a\L	.	8aa\L	.
8C/	5 3	.	8ee\J	.	8gg\J	.	.	.	.	.	.	8c/J	.	8g\J	.	8gg\J	.
8C/	.	.	8r	.	8r	.	.	.	.	.	.	4r	.	4r	.	8r	.
8C/J	.	.	8e/	.	8g/	.	.	.	.	.	.	.	.	.	.	8gg\	.
!LO:LB:g=original	!	!	!LO:SIC:s=8fL	!	!LO:LB:g=original	!	!	!	!	!	!	!	!	!	!	!LO:SIC:v:s=8aa-\L	!
4C/	-6 4	.	(<8f/L	.	8a-X/L	.	.	.	.	.	.	4c/	.	4c/	.	8aa\L	.
!	!	!	!	!	!LO:SIC:s=8g	!	!	!	!	!	!	!	!	!	!	!	!
.	.	.	8e/	.	8g/J	.	.	.	.	.	.	.	.	.	.	8gg\	.
!	!	!	!LO:SIC:s=8f	!	!LO:SIC:s=8a-	!	!	!	!	!	!	!	!	!	!	!LO:SIC:v:s=8aa-\	!
4r	.	.	8f/)	.	8a-/L	.	.	.	.	.	.	4r	.	4r	.	8aa\	.
!	!	!	!	!	!LO:SIC:s=8bJ	!	!	!	!	!	!	!	!	!	!	!	!
.	.	.	8d/J	.	[<8bn/J	.	.	.	.	.	.	.	.	.	.	8bbn\J	.
!	!	!	!	!	!	!	!	!	!	!	!	!LO:LB:g=original	!	!	!	!	!
=27	=27	=27	=27	=27	=27	=27	=27	=27	=27	=27	=27	=27	=27	=27	=27	=27	=27
!	!	!	!	!	!LO:SIC:s=8b	!	!	!	!	!	!	!	!	!	!	!LO:SIC:v:s=8bn\	!
8r	.	.	8d/L	.	8b\]	.	.	.	.	.	1ryy	2r	.	2rg	.	8b-\	.
8C/L	.	.	8e/	.	4cc\	.	.	.	.	.	.	.	.	.	.	4cc\	.
8D/	.	.	8f/	.	.	.	.	.	.	.	.	.	.	.	.	.	.
8En/J	.	.	8g/J	.	8b-X\	.	.	.	.	.	.	.	.	.	.	8b-X\	.
!LO:TX:t=P:problem=mixed beam	!	!	!	!	!	!	!	!	!	!	!	!	!	!	!	!	!
8F\L	.	.	8.c/L	.	16an/LL	.	.	.	.	.	.	8r	.	8r	.	16aan\LL	.
.	.	.	.	.	16e/	.	.	.	.	.	.	.	.	.	.	16ee\	.
16AA/L	.	.	.	.	16f/	.	.	.	.	.	.	16a\LL	.	16cc\LL	.	16ff\	.
16BB-/JJ	.	.	16d/Jk	.	16g/JJ	.	.	.	.	.	.	16g\JJ	.	16b-\JJ	.	16gg\JJ	.
!LO:TX:t=P:problem=mixed beam	!	!	!	!	!	!	!	!	!	!	!	!LO:TX:t=P:problem=mixed beam	!	!	!	!	!
!	!	!	!	!	!	!	!	!	!	!	!	!LO:SIC:s=8fTL	!	!	!	!	!
8C\L	.	.	4et>/	.	4gT>/	.	.	.	.	.	.	8f\L	.	8at>\L	.	4ggT\	.
8CC/J	.	.	.	.	.	.	.	.	.	.	.	8c/J	.	8g\J	.	.	.
=28	=28	=28	=28	=28	=28	=28	=28	=28	=28	=28	=28	=28	=28	=28	=28	=28	=28
4FF/	.	.	4f/	.	4f/	.	4r	.	.	.	1ryy	4A/	.	4f\	.	4ff\	.
4F\	.	.	4cc\	.	4aa\	.	4F\	Et	.	Et	.	8r	.	8r	.	4aa\	.
.	.	.	.	.	.	.	.	.	.	.	.	8f\	.	8a\	.	.	.
*	*	*	*	*	*	*	*custos:E	*	*	*	*	*	*	*	*	*	*
!	!	!	!	!	!	!	!LO:LB:g=original	!	!	!	!	!	!	!	!	!	!
8E\L	.	.	8cc\L	.	8gg\L	.	8E\	cir-	.	cir-	.	8.c/L	.	8.g\L	.	8gg\L	.
8E\	.	.	8cc\	.	8gg\	.	8E\	-ca	.	-ca	.	.	.	.	.	8gg\	.
.	.	.	.	.	.	.	.	.	.	.	.	16c/Jk	.	16g\Jk	.	.	.
8E-X\	X 6	.	8cc\	.	8gg\	.	8E-X\	ho-	.	ho-	.	4c/	.	4g\	.	8gg\	.
8E-\J	.	.	8cc\J	.	8gg\J	.	8E-\	-ram	.	-ram	.	.	.	.	.	8gg\J	.
!	!	!	!	!	!	!	!	!	!	!	!	!	!	!LO:LB:g=original	!	!	!
=29	=29	=29	=29	=29	=29	=29	=29	=29	=29	=29	=29	=29	=29	=29	=29	=29	=29
4D/	X 6|	.	4bn/	.	4ff\	.	4D/	no-	.	no-	1ryy	4g\	.	4g\	.	4ff\	.
8D/L	.	.	8b/L	.	4ff\	.	8D/	-nam	.	-nam	.	4r	.	4r	.	4ff\	.
8BBn/J	X 6	.	8g/J	.	.	.	8BBn/	cla-	.	cla-	.	.	.	.	.	.	.
.	X 5	.	.	.	.	.	.	.	.	.	.	.	.	.	.	.	.
!	!	!	!LO:LB:g=original	!	!	!	!	!	!	!	!	!	!	!	!	!	!
4C/	.	.	4.cc\	.	4.ee-X\	.	4C/	-ma-	.	-ma-	.	2rg	.	2rg	.	4.ee-X\	.
4F#X\	X -7	.	.	.	.	.	4F#X\	-bat	.	-bat	.	.	.	.	.	.	.
.	.	.	8cc\	.	8ee-\	.	.	.	.	.	.	.	.	.	.	8ee-\	.
=30	=30	=30	=30	=30	=30	=30	=30	=30	=30	=30	=30	=30	=30	=30	=30	=30	=30
!	!	!	!LO:SIC:s=8ccL	!	!LO:SIC:v:s=8ee-\L	!	!LO:TX:a:t=P:problem=tekst podpisany podwójnie	!	!	!	!	!	!	!	!	!LO:SIC:v:s=8ee-\L	!
4G\	-6 4	.	(>8cc\L	.	8ee\L	.	4G\	Je-	.	Je-	1ryy	8r	.	8r	.	8ee\L	.
!	!	!	!LO:SIC:s=8bJ	!	!	!	!	!	!	!	!	!	!	!	!	!	!
.	.	.	8bn\J)	.	8dd\J	.	.	.	.	.	.	16g\LL	.	16g\LL	.	8dd\J	.
.	.	.	.	.	.	.	.	.	.	.	.	16g\JJ	.	16g\JJ	.	.	.
4GG/	X n	.	4b\	.	4dd\	.	4G\	-sus	au-	-sus	.	8g\L	.	8g\L	.	4dd\	.
.	.	.	.	.	.	.	.	.	.	.	.	8g\J	.	8g\J	.	.	.
*custos:C	*	*	*	*	*custos:gg	*	*	*	*	*	*	*	*	*	*	*	*
!LO:LB:g=original	!	!	!	!	!LO:LB:g=original	!	!LO:SIC:s=(8CL	!	!	!	!	!	!	!	!	!LO:LB:g=original	!
8C/L	X -3	.	8ee-X\L	.	4.gg\	.	8C/L	vo-	-tem	vo-	.	4g\	.	4g\	.	4.gg\	.
!	!	!	!	!	!	!	!LO:SIC:s=8DJ)	!	!	!	!	!	!	!	!	!	!
8D/	.	.	8bn\	.	.	.	8D/J	.	.	.	.	.	.	.	.	.	.
8E-X/	.	.	8cc\	.	.	.	(>8E-X\L	-ce	.	-ce	.	4r	.	4r	.	.	.
8F/J	.	.	8a-X\J	.	8dd\	.	8F\J)	.	.	.	.	.	.	.	.	8dd\	.
=31	=31	=31	=31	=31	=31	=31	=31	=31	=31	=31	=31	=31	=31	=31	=31	=31	=31
4G\	.	.	4d/	.	4bn\	.	4G\	ma-	.	ma-	1ryy	4r	.	4r	.	4bn\	.
8A\L	.	.	4g/	.	8cc\L	.	8A\L	-gna	.	-gna	.	8r	.	8r	.	8cc\L	.
!	!	!	!	!	!	!	!	!	!	!	!	!	!	!	!	!LO:SIC:s=8ddJ	!
8Bn\J	.	.	.	.	8dd\J	.	8Bn\J	.	.	.	.	16g\LL	.	16g\LL	.	8dd\	.
.	.	.	.	.	.	.	.	.	.	.	.	16g\JJ	.	16g\JJ	.	.	.
!	!	!	!	!	!	!	!	!	!	!	!	!	!	!	!	!LO:SIC:s=8ee-L	!
8c\L	-	.	8g/L	.	8ee-X\L	.	8c\	di-	.	di-	.	8g\L	.	8g\L	.	8ee-X\	.
8G\J	.	.	8bn/J	.	8dd\J	.	8G\	-cens	.	-cens:	.	8g\J	.	8g\J	.	8dd\J	.
4r	.	.	4r	.	4r	.	4r	.	.	.	.	4r	.	4r	.	4r	.
!	!	!	!	!	!	!	!	!	!	!	!	!LO:LB:g=original	!	!	!	!	!
=32	=32	=32	=32	=32	=32	=32	=32	=32	=32	=32	=32	=32	=32	=32	=32	=32	=32
!	!	!	!	!	!	!	!	!	!	!	!	!	!	!LO:TX:a:t=2:mod=	!	!	!
4F#X\	.	.	4an/	.	8d/L	.	4F#X\	E-	.	"E-	1ryy	0r	.	0r	.	8dd\L	.
.	.	.	.	.	8f#X/	.	.	.	.	.	.	.	.	.	.	8ff#X\	.
4F#\	.	.	4a/	.	8a/	.	4F#\	-li	.	-li	.	.	.	.	.	8aa\	.
.	.	.	.	.	8dd/J	.	.	.	.	.	.	.	.	.	.	8dd\J	.
8F#\L	.	.	4a/	.	4d/	.	8F#\	La-	.	la-	.	.	.	.	.	4dd\	.
8F#\	.	.	.	.	.	.	8F#\	-ma	.	-ma	.	.	.	.	.	.	.
8F#\	.	.	4a/	.	4cc\	.	8F#\	ſa-	.	sa-	.	.	.	.	.	4ccc\	.
8F#\J	.	.	.	.	.	.	8F#\	-ba-	.	-bac-	.	.	.	.	.	.	.
!	!	!	!	!	!	!	!LO:LB:g=original	!	!	!	!	!	!	!	!	!	!
=33	=33	=33	=33	=33	=33	=33	=33	=33	=33	=33	=33	=33	=33	=33	=33	=33	=33
4G\	X n	.	4d/	.	4bn/	.	4G\	-tha-	.	-tha-	1ryy	.	.	.	.	4bbn\	.
4G\	.	.	4d/	.	4g/	.	4G\	-ni	.	-ni?"	.	.	.	.	.	4gg\	.
4c\	X -3_	.	4cc\	.	4ee-X\	.	4c\	hoc	.	hoc	.	.	.	.	.	4ee-X\	.
!	!	!	!LO:TX:a:t=P:problem=cauda z lewej	!	!	!	!	!	!	!	!	!	!	!	!	!	!
4B-X\	x	.	4cc\	.	4ee-\	.	4B-X\	eſt	.	est:	.	.	.	.	.	4ee-\	.
!	!	!	!LO:LB:g=original	!	!	!	!	!	!	!	!	!	!	!	!	!	!
=34	=34	=34	=34	=34	=34	=34	=34	=34	=34	=34	=34	=34	=34	=34	=34	=34	=34
4r;>	.	.	4r;>	.	4r;>	.	4r;>	.	.	.	1ryy	4r;>	.	4r;>	.	4r;>	.
8A\L	.	.	8cc\L	.	4ff\	.	8A\	De-	.	"De-	.	4f\	.	4f\	.	4ff\	.
8F\J	.	.	8a\J	.	.	.	8F\	-us	.	-us	.	.	.	.	.	.	.
*	*	*	*	*	*custos:ff	*	*	*	*	*	*	*	*	*	*	*	*
!LO:LB:g=original	!	!	!	!	!LO:LB:g=original	!	!	!	!	!	!	!	!	!	!	!	!
4B-\	.	.	8dd\L	.	8ff\L	.	4B-\	me-	.	me-	.	4f\	.	4f\	.	8ff\L	.
.	.	.	8b-\	.	8dd\	.	.	.	.	.	.	.	.	.	.	8dd\	.
!LO:TX:t=P:problem=mixed beam	!	!	!	!	!	!	!	!	!	!	!	!LO:MO:mod=8fL	!	!	!	!	!
8B-\L	.	.	8b-\	.	8dd\	.	8B-\	-us	.	-us,	.	8.f\L	.	8f\L	.	8dd\	.
!	!	!	!	!	!	!	!	!	!	!	!	!LO:MO:null:mod=16fL	!	!	!	!	!
8D/J	.	.	8g\J	.	8b-\J	.	8D/	ut	.	ut	.	.	.	16f\L	.	8b-\J	.
!	!	!	!	!	!	!	!	!	!	!	!	!LO:SIC:s=16fJJ	!	!	!	!	!
.	.	.	.	.	.	.	.	.	.	.	.	16f\Jk	.	16f\JJ	.	.	.
!	!	!	!	!	!	!	!	!	!	!	!	!	!	!LO:LB:g=original	!	!	!
=35	=35	=35	=35	=35	=35	=35	=35	=35	=35	=35	=35	=35	=35	=35	=35	=35	=35
4D/	.	.	8f/L	.	8b-/L	.	4D/	quid	.	quid	1ryy	4f\	.	4f\	.	8bb-\L	.
!	!	!	!	!	!LO:SIC:s=8f	!	!	!	!	!	!	!	!	!	!	!LO:SIC:s=8ff	!
.	.	.	8d/	.	8f/J	.	.	.	.	.	.	.	.	.	.	8ff\J	.
!	!	!	!	!	!LO:SIC:s=8d	!	!	!	!	!	!	!	!	!	!	!LO:SIC:s=8dd	!
8D/L	.	.	8B-/	.	8d/L	.	8D|>/L	me	.	me	.	4r	.	4r	.	8dd\L	.
!	!	!	!	!	!	!	!	!	!	!	!	!	!	!	!	!LO:SIC:s=[8bb-J	!
8D/J	.	.	8f/J	.	[<8b-/J	.	8D|>/J	de-	.	de-	.	.	.	.	.	8bb-\J	.
!	!	!	!	!	!	!	!	!	!	!	!	!	!	!	!	!LO:SIC:s=8bb-L]	!
4E-X\	.	.	4g/	.	8b-/L]	.	4E-X\	-re-	.	-re-	.	2rg	.	2rg	.	8bb-\L	.
.	.	.	.	.	16a/L	.	.	.	.	.	.	.	.	.	.	16aa\L	.
.	.	.	.	.	16b-/JJ	.	.	.	.	.	.	.	.	.	.	16bb-\JJ	.
!	!	!	!	!	!	!	!LO:SIC:s=(8E-L	!	!	!	!	!	!	!	!	!LO:SIC:s=[4ccc	!
8E-\L	X 6	.	8g/L	.	[<4cc\	.	8E-\L	-li-	.	-li-	.	.	.	.	.	4ccc\	.
!	!	!	!	!	!	!	!LO:SIC:s=16DL	!	!	!	!	!	!	!	!	!	!
16D\L	.	.	16f/L	.	.	.	(>16D\L	.	.	.	.	.	.	.	.	.	.
16E-\JJ	.	.	16g/JJ	.	.	.	16E-\JJ)	.	.	.	.	.	.	.	.	.	.
!	!	!	!	!	!	!	!	!	!	!	!	!	!	!	!	!LO:LB:g=original	!
=36	=36	=36	=36	=36	=36	=36	=36	=36	=36	=36	=36	=36	=36	=36	=36	=36	=36
!	!	!	!	!	!LO:TX:t=P:problem=mixed beam	!	!	!	!	!	!	!	!	!	!	!LO:SIC:s=8cccL]	!
4F\	.	.	8a/L	.	8cc\L]	.	4F\	-qui-	.	-qui-	1ryy	8r	.	8r	.	8ccc\L	.
.	.	.	8f/	.	8f/	.	.	.	.	.	.	8a\L	.	8cc\L	.	8ff\	.
4F\	.	.	8a/	.	8a/	.	4F\	-sti	.	-sti	.	8a\	.	8cc\	.	8aa\	.
.	.	.	8cc/J	.	8cc/J	.	.	.	.	.	.	8a\J	.	8cc\J	.	8ccc\J	.
!	!	!	!LO:TX:t=P:problem=mixed beam	!	!	!	!	!	!	!	!	!	!	!	!	!	!
8r	.	.	8ff\L	.	8ff\L	.	8r	.	.	.	.	4a\	.	4cc\	.	8ff\L	.
8F\L	.	.	8a/	.	8cc\	.	8F\	Cla-	.	cla-	.	.	.	.	.	8cc\	.
8F\	.	.	8a/	.	8cc\	.	8F\	-ma-	.	-ma-	.	4r	.	4r	.	8cc\	.
8F\J	.	.	8a/J	.	8cc\J	.	8F\	-bant.	.	-bant?"	.	.	.	.	.	8cc\J	.
*	*	*	*	*	*	*	*custos:G	*	*	*	*	*	*	*	*	*	*
!	!	!	!	!	!	!	!LO:LB:g=original	!	!	!	!	!	!	!	!	!	!
=37	=37	=37	=37	=37	=37	=37	=37	=37	=37	=37	=37	=37	=37	=37	=37	=37	=37
8G\L	.	.	8b-/L	.	8ee-X\L	.	8G\	Au-	.	Au-	1ryy	4g\	.	4b-\	.	8ee-X\L	.
8G\	.	.	8b-/J	.	8ee-\J	.	16G\	-tem	.	-tem	.	.	.	.	.	8ee-\J	.
.	.	.	.	.	.	.	16G\	Ju-	.	Ju-	.	.	.	.	.	.	.
!	!	!	!LO:TX:t=P:problem=mixed beam	!	!	!	!	!	!	!	!	!	!	!	!	!	!
8A\	6 -5	.	8cc\L	.	8ee-\L	.	8A\	-dae-	.	-dae-	.	4f\	.	4a\	.	8ee-\L	.
8A\J	.	.	8f/J	.	16dd\L	.	16A\	-i	.	-i	.	.	.	.	.	16dd\L	.
.	.	.	.	.	16cc\JJ	.	16A\	di-	.	di-	.	.	.	.	.	16cc\JJ	.
!	!	!	!	!	!LO:TX:t=P:problem=mixed beam	!	!	!	!	!	!	!	!	!	!	!	!
4B-\	.	.	8f/L	.	16dd\LL	.	8B-\	-cen-	.	-cen-	.	4f\	.	4f\	.	16dd\LL	.
!	!	!	!	!	!LO:SIC:s=16f	!	!	!	!	!	!	!	!	!	!	!	!
.	.	.	.	.	(<16f/	.	.	.	.	.	.	.	.	.	.	16ff\	.
.	.	.	16r	.	16g/	.	8B-\	-tes	.	-tes:	.	.	.	.	.	16gg\	.
!	!	!	!	!	!LO:SIC:s=16aJJ	!	!	!	!	!	!	!	!	!	!	!	!
.	.	.	16f/Jk	.	16a/JJ)	.	.	.	.	.	.	.	.	.	.	16aa\JJ	.
!	!	!	!LO:LB:g=original	!	!	!	!	!	!	!	!	!	!	!	!	!	!
4r	.	.	16g/LL	.	16b-/LL	.	4r	.	.	.	.	4r	.	4r	.	16bb-\LL	.
!	!	!	!	!	!LO:SIC:s=16a	!	!	!	!	!	!	!	!	!	!	!	!
.	.	.	16f/	.	(<16a/	.	.	.	.	.	.	.	.	.	.	16aa\	.
.	.	.	16g/	.	16b-/	.	.	.	.	.	.	.	.	.	.	16bb-\	.
!	!	!	!	!	!LO:SIC:s=16ccJJ	!	!	!	!	!	!	!	!	!	!	!	!
.	.	.	16a/JJ	.	16cc/JJ)	.	.	.	.	.	.	.	.	.	.	16ccc\JJ	.
!	!	!	!	!	!LO:LB:g=original	!	!	!	!	!	!	!	!	!	!	!	!
=38	=38	=38	=38	=38	=38	=38	=38	=38	=38	=38	=38	=38	=38	=38	=38	=38	=38
!LO:TX:t=P:problem=mixed beam	!	!	!	!	!	!	!	!	!	!	!	!	!	!	!	!	!
8B-\L	.	.	4b-/	.	4dd\	.	8B-\	He-	.	"He-	1ryy	8.f\L	.	8.f\L	.	4dd\	.
8BB-/	.	.	.	.	.	.	16B-\	-li-	.	-li-	.	.	.	.	.	.	.
.	.	.	.	.	.	.	16B-\	-am	.	-am	.	16f\Jk	.	16f\Jk	.	.	.
8D/	.	.	4r	.	4r	.	8B-\	vo-	.	vo-	.	8f\L	.	8f\L	.	4r	.
8BB-/J	.	.	.	.	.	.	8B-\	-cat	.	-cat	.	8f\J	.	8f\J	.	.	.
!LO:TX:t=P:problem=mixed beam	!	!	!	!	!	!	!	!	!	!	!	!	!	!	!	!	!
8F\L	.	.	4r	.	16r	.	8A\	iſ-	.	is-	.	4f\	.	4f\	.	16r	.
!	!	!	!	!	!LO:SIC:s=16ccLL	!	!	!	!	!	!	!	!	!	!	!	!
.	.	.	.	.	(>16cc\LL	.	.	.	.	.	.	.	.	.	.	16cc\LL	.
8FF/J	.	.	.	.	16dd\	.	8A\	-te	.	-te	.	.	.	.	.	16dd\	.
!	!	!	!	!	!LO:SIC:s=16eeJJ	!	!	!	!	!	!	!	!	!	!	!	!
.	.	.	.	.	16een\JJ)	.	.	.	.	.	.	.	.	.	.	16een\JJ	.
4r	.	.	16r	.	16ff\LL	.	4r	.	.	.	.	4r	.	4r	.	16ff\LL	.
!	!	!	!LO:SIC:s=16ccLL	!	!	!	!	!	!	!	!	!	!	!	!	!	!
.	.	.	(>16cc\LL	.	16ee\	.	.	.	.	.	.	.	.	.	.	16ee\	.
.	.	.	16dd\	.	16ff\	.	.	.	.	.	.	.	.	.	.	16ff\	.
!	!	!	!LO:SIC:s=16eeJJ	!	!	!	!	!	!	!	!	!	!	!	!	!	!
.	.	.	16een\JJ)	.	16gg\JJ	.	.	.	.	.	.	.	.	.	.	16gg\JJ	.
!LO:LB:g=original	!	!	!	!	!	!	!	!	!	!	!	!LO:LB:g=original	!	!LO:LB:g=original	!	!	!
=39	=39	=39	=39	=39	=39	=39	=39	=39	=39	=39	=39	=39	=39	=39	=39	=39	=39
8F\L	.	.	4ff\	.	4aa\	.	8F\	si-	.	si-	1ryy	8.f\L	.	8.a\L	.	4aa\	.
16F\L	.	.	.	.	.	.	16F\	-ni-	.	-ni-	.	.	.	.	.	.	.
16F\JJ	.	.	.	.	.	.	16F\	-te	.	-te	.	16f\Jk	.	16a\Jk	.	.	.
8F\L	.	.	8r	.	8r	.	8F\	vi-	.	vi-	.	(>16f\LL	.	(>16a\LL	.	8r	.
.	.	.	.	.	.	.	.	.	.	.	.	16g\)	.	16b-\)	.	.	.
8F\J	.	.	8ff\	.	8aa\	.	8F\	-de-	.	-de-	.	(>16f\	.	(>16a\	.	8aa\	.
.	.	.	.	.	.	.	.	.	.	.	.	16g\JJ)	.	16b-\JJ)	.	.	.
!	!	!	!	!	!	!	!LO:LB:g=original	!	!	!	!	!	!	!	!	!	!
4D\	5 3	.	8a/L	.	8ff\L	.	4D/	-a-	.	-a-	.	4f\	.	4a\	.	8ff\L	.
.	.	.	8a/	.	8ff\	.	.	.	.	.	.	.	.	.	.	8ff\	.
8D\L	.	.	8a/	.	8ff\	.	8D/	-mus	.	-mus	.	4r	.	4r	.	8ff\	.
8D\J	.	.	8a/J	.	8ff\J	.	8D/	an	.	an	.	.	.	.	.	8ff\J	.
!	!	!	!	!	!	!	!	!	!	!	!	!	!	!	!	!LO:LB:g=original	!
=40	=40	=40	=40	=40	=40	=40	=40	=40	=40	=40	=40	=40	=40	=40	=40	=40	=40
8AA/L	-	.	8f/L	.	8ccc\L	.	8AA/	ve-	.	ve-	1ryy	8r	.	8r	.	8ccc\L	.
8AA/	6 5	.	8f/	.	8ccc\J	.	16AA/	-ni-	.	-ni-	.	16F/LL	.	16F/LL	.	8ccc\J	.
.	.	.	.	.	.	.	16AA/	-at	.	-at	.	16F/JJ	.	16F/JJ	.	.	.
8AA/	.	.	8f/	.	4ee-XT>\	.	8.AA/	He-	.	He-	.	8F/L	.	8F/L	.	4ee-XT\	.
8AA/J	.	.	8f/J	.	.	.	.	.	.	.	.	8F/J	.	8F/J	.	.	.
.	.	.	.	.	.	.	16AA/	-li-	.	-li-	.	.	.	.	.	.	.
!	!	!	!	!	!	!	!	!	!	!	!	!	!	!LO:MO:mod=4F	!	!	!
4BB-/	.	.	4f/	.	4dd\	.	4BB-/	-as	.	-as	.	4F/	.	4ryy	.	4dd\	.
.	X 7	.	.	.	.	.	.	.	.	.	.	.	.	.	.	.	.
4En\	X 6	.	8b-/L	.	8dd\L	.	8En\	li-	.	li-	.	4r	.	4r	.	8dd\L	.
.	X 5	.	8g/J	.	16cc\L	.	16E\	-be-	.	-be-	.	.	.	.	.	16cc\L	.
.	.	.	.	.	16b-\JJ	.	16E\	-rans	.	-rans	.	.	.	.	.	16b-\JJ	.
!	!	!	!	!	!LO:LB:g=original	!	!	!	!	!	!	!	!	!	!	!	!
=41	=41	=41	=41	=41	=41	=41	=41	=41	=41	=41	=41	=41	=41	=41	=41	=41	=41
!	!	!	!LO:MO:null:mod=16qqg	!	!	!	!	!	!	!	!	!	!	!	!	!LO:MO:null:mod=16qqbb-	!
.	.	.	.	.	16qqb-/	.	.	.	.	.	.	.	.	.	.	.	.
!LO:TX:t=P:problem=mixed beam	!	!	!	!	!	!	!	!	!	!	!	!	!	!	!	!	!
8F\L	.	.	8f/L	.	8a/L	.	8F\	e-	.	e-	1ryy	8f\L	.	8a\L	.	8aa\L	.
8C/J	.	.	8e/J	.	8g/J	.	8C/	-um	.	-um.	.	8c\J	.	8g\J	.	8gg\J	.
!	!	!	!LO:SIC:s=16eLL	!	!	!	!	!	!	!	!	!	!	!	!	!	!
4r	.	.	(<16e/LL	.	16g/LL	.	4r	.	.	.	.	4r	.	4r	.	16gg\LL	.
.	.	.	16c/	.	16e/	.	.	.	.	.	.	.	.	.	.	16ee\	.
.	.	.	16f/	.	16a/	.	.	.	.	.	.	.	.	.	.	16aa\	.
!	!	!	!LO:SIC:s=16dJJ	!	!	!	!	!	!	!	!	!	!	!	!	!	!
.	.	.	16d/JJ)	.	16f/JJ	.	.	.	.	.	.	.	.	.	.	16ff\JJ	.
4C/	X n	.	8e/L	.	8g/L	.	8E\	di-	.	Di-	.	2rg	.	2rg	.	8gg\L	.
.	.	.	8c/J	.	8e/J	.	8E\	-xit	.	-xit	.	.	.	.	.	8ee\J	.
4C/	.	.	4r	.	4r	.	8E\	au-	.	au-	.	.	.	.	.	4r	.
.	.	.	.	.	.	.	8E\	-tem	.	-tem	.	.	.	.	.	.	.
!	!	!	!LO:LB:g=original	!	!	!	!	!	!	!	!	!	!	!	!	!	!
=42	=42	=42	=42	=42	=42	=42	=42	=42	=42	=42	=42	=42	=42	=42	=42	=42	=42
!	!	!	!LO:TX:a:t=1.:mod=	!	!LO:TX:a:t=1.:mod=	!	!	!	!	!	!	!LO:TX:a:t=1.:mod=	!	!LO:TX:a:t=1.:mod=	!	!LO:TX:a:t=1:mod=	!
4C/	-6 4	.	1r	.	1r	.	4F\	Je-	.	Je-	1ryy	1r	.	1r	.	1r	.
4C/	X n	.	.	.	.	.	4E\	-suſ	.	-sus	.	.	.	.	.	.	.
4C/	-6 4	.	.	.	.	.	4.F\	si-	.	si-	.	.	.	.	.	.	.
4BBn/	X -7	.	.	.	.	.	.	.	.	.	.	.	.	.	.	.	.
!	!	!	!	!	!	!	!	!LO:SIC:v:s=-ti-	!	!	!	!	!	!	!	!	!
.	.	.	.	.	.	.	8F\	-li-	.	-ti-	.	.	.	.	.	.	.
!LO:LB:g=original	!	!	!	!	!	!	!LO:LB:g=original	!	!	!	!	!	!	!LO:LB:g=original	!	!	!
=43	=43	=43	=43	=43	=43	=43	=43	=43	=43	=43	=43	=43	=43	=43	=43	=43	=43
!	!	!	!	!	!	!	!	!	!	!	!	!	!LO:DY:b:t=p&colon;	!	!LO:MO:null:mod=p	!	!
4C/	.	.	8r	.	8r	.	4E\	-o	.	-o.	1ryy	4c/	p	4c/	.	8r	.
.	.	.	8e/	.	8g/	.	.	.	.	.	.	.	.	.	.	8gg\	.
!	!	!	!	!	!	!	!	!	!	!	!	!	!	!	!	!LO:SIC:s=(8ggL	!
4r	.	.	(<8e/L	.	(<8g/L	.	4r	.	.	.	.	4r	.	4r	.	8gg\L	.
!	!	!	!	!	!	!	!	!	!	!	!	!	!	!	!	!LO:SIC:s=8aa-J)	!
.	.	.	8f/J)	.	8a-X/J)	.	.	.	.	.	.	.	.	.	.	8aa-X\J	.
!	!	!	!LO:SIC:s=(8eL	!	!	!	!	!	!	!	!	!	!	!	!LO:DY:b:t=pia&colon;	!LO:SIC:s=(8ggL	!
!	!	!	!	!	!	!	!	!	!	!	!	!	!	!	!LO:MO:mod=.	!	!
4C/	.	.	8e/L	.	(<8g/L	.	2rBB	.	.	.	.	4c/	.	4c/	p	8gg\L	.
!	!	!	!	!	!	!	!	!	!	!	!	!	!	!	!	!LO:MO:null:mod=16qqaa-LL\\	!
.	.	.	16qqf/LL	.	16qqa-X/LL	.	.	.	.	.	.	.	.	.	.	.	.
!	!	!	!LO:TX:a:t=P:problem=bemol również nad nutą	!	!	!	!	!	!	!	!	!	!	!	!	!LO:MO:null:mod=16qqbb-JJ\\	!
.	.	.	16qqg/JJ	.	16qqb-/JJ	.	.	.	.	.	.	.	.	.	.	.	.
!	!	!	!LO:SIC:s=8a-J)	!	!	!	!	!	!	!	!	!	!	!	!	!LO:SIC:s=8cccJ)	!
.	.	.	8a-X/J	.	8cc/J)	.	.	.	.	.	.	.	.	.	.	8ccc\J	.
!	!	!	!	!	!LO:SIC:s=(8b-L	!	!	!	!	!	!	!	!	!	!	!LO:SIC:s=(8bb-L	!
4r	.	.	(<8g/L	.	8b-/L	.	.	.	.	.	.	4r	.	4r	.	8bb-\L	.
!	!	!	!	!	!LO:SIC:s=8a-J)	!	!	!	!	!	!	!	!	!	!	!LO:SIC:s=8aa-J)	!
.	.	.	8f/J)	.	8a-X/J	.	.	.	.	.	.	.	.	.	.	8aa-X\J	.
*	*	*	*	*	*custos:g	*	*	*	*	*	*	*	*	*	*	*	*
!	!	!	!	!	!LO:LB:g=original	!	!	!	!	!	!	!	!	!	!	!	!
=44	=44	=44	=44	=44	=44	=44	=44	=44	=44	=44	=44	=44	=44	=44	=44	=44	=44
*	*	*	*	*	*^	*	*	*	*	*	*	*	*	*	*	*	*
4C/	.	.	4e/	.	4g/	2ryyyy	.	8E\	Et	.	Et	1ryy	4c/	.	4c/	.	4gg\	.
.	.	.	.	.	.	.	.	8E\	de-	.	de-	.	.	.	.	.	.	.
4r	.	.	4r	.	4r	.	.	8E\	-de-	.	-de-	.	4r	.	4r	.	4r	.
.	.	.	.	.	.	.	.	8E\	-runt	.	-runt	.	.	.	.	.	.	.
!	!	!	!	!	!	!	!	!	!	!	!	!	!LO:LB:g=original	!	!	!	!	!
8r	.	.	8r	.	8r	8ryy	.	4E\	e-	.	e-	.	8r	.	8r	.	8r	.
8E\L	.	.	8e/L	.	8b-/L	8g\L	.	.	.	.	.	.	8c/L	.	8c/L	.	8bb-\L	.
8E\	.	.	8e/	.	8b-/	8g\	.	8E\	-i	.	-i	.	8c/	.	8c/	.	8bb-\	.
!	!	!	!	!	!	!	!	!	!LO:SIC:v:s=a-	!	!LO:SIC:v:s=a-	!	!	!	!	!	!	!
8E\J	.	.	8e/J	.	8b-/J	8g\J	.	8E\	ac-	.	ac-	.	8c/J	.	8c/J	.	8bb-\J	.
=45	=45	=45	=45	=45	=45	=45	=45	=45	=45	=45	=45	=45	=45	=45	=45	=45	=45	=45
4F\	.	.	8c/	.	8an/	8f\	.	4F\	-ce-	.	-ce-	1ryy	4c/	.	4c/	.	8aan\	.
.	.	.	4a/	.	4ff\	8ryyyy	.	.	.	.	.	.	.	.	.	.	4ff\	.
8F\L	.	.	.	.	.	4ryyyy	.	8F\	-tum	.	-tum	.	4r	.	4r	.	.	.
8A\J	.	.	16b-\LL	.	8ee-X\	.	.	8A\	cum	.	cum	.	.	.	.	.	8ee-X\	.
.	.	.	16cc\JJ	.	.	.	.	.	.	.	.	.	.	.	.	.	.	.
!	!	!	!	!	!	!	!	!	!	!	!	!	!	!	!	!	!LO:MO:null:mod=16qqee-	!
.	.	.	.	.	16qqee-/	.	.	.	.	.	.	.	.	.	.	.	.	.
!	!	!	!	!	!	!	!	!	!	!	!	!	!	!	!	!	!LO:LB:g=original	!
4B-\	.	.	4.f/	.	8dd\	2ryyyy	.	4B-X\	fel-	.	fel-	.	2rg	.	2rg	.	8dd\	.
.	.	.	.	.	4dd\	.	.	.	.	.	.	.	.	.	.	.	4dd\	.
4Bn\	.	.	.	.	.	.	.	4Bn\	-le	.	-le	.	.	.	.	.	.	.
.	.	.	8dd\	.	8gg\	.	.	.	.	.	.	.	.	.	.	.	8gg\	.
*	*	*	*	*	*v	*v	*	*	*	*	*	*	*	*	*	*	*	*
=46	=46	=46	=46	=46	=46	=46	=46	=46	=46	=46	=46	=46	=46	=46	=46	=46	=46
!	!	!	!	!	!LO:TX:t=P:problem=mixed beam	!	!	!	!	!	!	!LO:TX:a:t=2:mod=	!	!	!	!	!
8c\L	.	.	8g/L	.	8een\L	.	8c\	mix-	.	mix-	1ryy	0r	.	0r	.	8een\L	.
!	!	!	!LO:SIC:s=8eJ	!	!LO:SIC:s=8gJ	!	!	!	!	!	!	!	!	!	!	!LO:SIC:s=8ggJ	!
8c\J	.	.	(<8e/	.	8g/	.	8c\	-tu(m)	.	-tum	.	.	.	.	.	8gg\	.
!	!	!	!LO:SIC:s=(8eL	!	!LO:SIC:s=(8gL	!	!	!	!	!	!	!	!	!	!	!LO:SIC:s=(8ggL	!
4r	.	.	8e/	.	(<8g/	.	4r	.	.	.	.	.	.	.	.	8gg\	.
!	!	!	!	!	!	!	!	!	!	!	!	!	!	!	!	!LO:SIC:s=8aa-J)	!
.	.	.	8f/J)	.	8a-X/J)	.	.	.	.	.	.	.	.	.	.	8aa-X\J	.
!	!	!	!LO:LB:g=original	!	!LO:SIC:s=(8gL	!	!	!	!	!	!	!	!	!	!	!LO:SIC:s=(8ggL	!
8r	.	.	(<8e/L	.	8g/L	.	8r	.	.	.	.	.	.	.	.	8gg\L	.
!	!	!	!	!	!	!	!	!	!	!	!	!	!	!	!	!LO:MO:null:mod=16qqaa-LL\\	!
.	.	.	16qqf/LL	.	16qqa-X/LL	.	.	.	.	.	.	.	.	.	.	.	.
!	!	!	!	!	!	!	!	!	!	!	!	!	!	!	!	!LO:MO:null:mod=16qqbb-JJ	!
.	.	.	16qqg/JJ	.	16qqb-/JJ	.	.	.	.	.	.	.	.	.	.	.	.
!	!	!	!	!	!LO:SIC:s=8ccJ)	!	!	!	!	!	!	!	!	!	!	!LO:SIC:s=8cccJ)	!
8c\L	8 -6	.	8a-X/J)	.	8cc/J	.	8c\	et	.	et	.	.	.	.	.	8ccc\	.
!	!	!	!LO:SIC:s=(8gL	!	!LO:SIC:s=(8b-L	!	!	!	!	!	!	!	!	!	!	!LO:SIC:s=(8bb-L	!
8c\	7 5	.	8g/L	.	8b-/L	.	8c\	cum	.	cum	.	.	.	.	.	8bb-\	.
!	!	!	!LO:SIC:s=8fJ)	!	!LO:SIC:s=8a-J)	!	!	!	!	!	!	!	!	!	!	!LO:SIC:s=8aa-J)	!
8c\J	-6 4	.	8f/J	.	8a-X/J	.	8c\	gu-	.	gu-	.	.	.	.	.	8aa-X\J	.
!	!	!	!	!	!	!	!LO:LB:g=original	!	!	!	!	!	!	!	!	!	!
=47	=47	=47	=47	=47	=47	=47	=47	=47	=47	=47	=47	=47	=47	=47	=47	=47	=47
!	!	!	!LO:MO:null:mod=8qqf	!	!LO:SIC:v:s=8qqa-/	!	!	!	!	!	!	!	!	!	!	!LO:MO:null:mod=8qqaa-	!
.	.	.	.	.	8qqa/	.	.	.	.	.	.	.	.	.	.	.	.
4c\	X n	.	4e/	.	4g/	.	4c\	-staſ-	.	-stas-	1ryy	.	.	.	.	4gg\	.
4C/	.	.	4e/	.	4g/	.	4c\	-set	.	-set	.	.	.	.	.	4gg\	.
!LO:LB:g=original	!	!	!	!	!	!	!	!	!	!	!	!	!	!	!	!	!
8.A\L	.	.	8c/L	.	8f/L	.	8.A\	no-	.	no-	.	.	.	.	.	8ff\L	.
!	!	!	!	!	!	!	!	!	!	!	!	!	!	!	!	!LO:SIC:s=8aa	!
.	.	.	8f/	.	8a/	.	.	.	.	.	.	.	.	.	.	8aa\J	.
16A\Jk	.	.	.	.	.	.	16A\	-lu-	.	-lu-	.	.	.	.	.	.	.
!	!	!	!	!	!	!	!	!	!	!	!	!	!	!	!	!LO:SIC:s=8cc	!
4A\	.	.	8a/	.	8cc/	.	4A\	-it	.	-it	.	.	.	.	.	8cc\L	.
.	.	.	8cc/J	.	8ee-X/J	.	.	.	.	.	.	.	.	.	.	8ee-X\J	.
!	!	!	!	!	!LO:LB:g=original	!	!	!	!	!	!	!	!	!	!	!	!
=48	=48	=48	=48	=48	=48	=48	=48	=48	=48	=48	=48	=48	=48	=48	=48	=48	=48
!	!	!	!	!	!LO:SIC:v:s=16qqee-/	!	!LO:N:vis=8.	!	!	!	!	!	!	!	!	!LO:SIC:v:s=16qqee-/	!
.	.	.	.	.	16qqee/	.	.	.	.	.	.	.	.	.	.	8qqee/	.
!	!	!	!	!	!	!	!LO:N:vis=8.	!	!	!	!	!	!	!	!	!	!
8.B-\L	.	.	4f/	.	8dd\L	.	8B-\	bi-	.	bi-	1ryy	4r	.	4r	.	8dd\L	.
.	.	.	.	.	16cc\L	.	16B-\	-be-	.	-be-	.	.	.	.	.	16cc\L	.
16B-\Jk	.	.	.	.	16b-\JJ	.	16B-\	-re	.	-re	.	.	.	.	.	16b-\JJ	.
8A\L	.	.	8f/L	.	8cc\L	.	8A\	et	.	et	.	8r	.	8r	.	8cc\L	.
8F\J	.	.	8a/J	.	8ff\J	.	8A\	Di-	.	di-	.	8a\	.	8cc\	.	8ff\J	.
!	!	!	!LO:MO:null:mod=16qqa	!	!	!	!	!	!	!	!	!	!	!LO:SIC:s=16qqcc	!	!LO:TX:a:t=P:problem=przednutka o nieokreślonej wysokości (wpisane c - jak w vn 1)	!
.	.	.	.	.	16qqcc/	.	.	.	.	.	.	16qqa/	.	8qqcc/	.	16qqccc/	.
8C/L	.	.	8g/L	.	8b-/L	.	8G\	-xit	.	-xit:	.	8g\L	.	8b-\L	.	8bb-\L	.
8FF/J	.	.	8f/J	.	8a/J	.	8F\	.	.	.	.	8f\J	.	8a\J	.	8aa\J	.
4r	.	.	4r	.	4r	.	4r	.	.	.	.	4r	.	4r	.	4r	.
!	!	!	!	!	!	!	!	!	!	!	!	!	!	!LO:LB:g=original	!	!	!
=49	=49	=49	=49	=49	=49	=49	=49	=49	=49	=49	=49	=49	=49	=49	=49	=49	=49
!	!	!	!	!	!LO:TX:i:b:t=Vertatur cito:mod=	!	!	!	!	!	!	!	!	!	!	!	!
!	!	!	!LO:TX:a:t=1.:mod=	!	!LO:TX:a:t=1:mod=	!	!	!	!	!	!	!	!	!LO:TX:a:t=3:mod=	!	!LO:TX:a:t=1:mod=	!
2C/	-6 n4_	.	1r	.	1r	.	4.E\	Con-	.	"Con-	1ryy	0r	.	0r	.	1r	.
.	.	.	.	.	.	.	8F\	-su-	.	-su-	.	.	.	.	.	.	.
4.C/	x	.	.	.	.	.	4F\	-ma-	.	-ma-	.	.	.	.	.	.	.
.	.	.	.	.	.	.	(>8E\L	-tum	.	-tum	.	.	.	.	.	.	.
8BBn/	X 5	.	.	.	.	.	8D\J)	.	.	.	.	.	.	.	.	.	.
!	!	!	!	!	!LO:PB:g=original	!	!	!	!	!	!	!	!	!	!	!	!
=50	=50	=50	=50	=50	=50	=50	=50	=50	=50	=50	=50	=50	=50	=50	=50	=50	=50
4C/	X n	.	8r	.	8r	.	4E\	eſt	.	est."	1ryy	.	.	.	.	8r	.
!	!	!	!	!	!	!	!	!	!	!	!	!	!	!	!	!LO:SIC:s=(8cccL	!
.	.	.	(<8a-X/L	.	(>8cc\L	.	.	.	.	.	.	.	.	.	.	8ccc\L	.
4r	.	.	8g/	.	8b-\	.	4r	.	.	.	.	.	.	.	.	8bb-\	.
!	!	!	!	!	!	!	!	!	!	!	!	!	!	!	!	!LO:SIC:s=8aa-J)	!
.	.	.	8f/J)	.	8a-X\J)	.	.	.	.	.	.	.	.	.	.	8aa-X\J	.
2rBB	.	.	8e/L	.	8g/L	.	2rBB	.	.	.	.	.	.	.	.	8gg\L	.
.	.	.	16f/L	.	16a-X/L	.	.	.	.	.	.	.	.	.	.	16aa-X\L	.
.	.	.	16d/JJ	.	16f/JJ	.	.	.	.	.	.	.	.	.	.	16ff\JJ	.
.	.	.	8c/L	.	8e/L	.	.	.	.	.	.	.	.	.	.	8ee\L	.
!	!	!	!LO:SIC:v:s=8dT/J	!	!	!	!	!	!	!	!	!	!	!	!	!LO:TX:t=P:problem=zygzak nad nutą - wstawione jako tryl	!
.	.	.	8e/J	.	8fT>/J	.	.	.	.	.	.	.	.	.	.	8ffT>\J	.
!LO:LB:g=original	!	!	!LO:LB:g=original	!	!	!	!LO:LB:g=original	!	!	!	!	!	!	!	!	!LO:LB:g=original	!
=51	=51	=51	=51	=51	=51	=51	=51	=51	=51	=51	=51	=51	=51	=51	=51	=51	=51
4r	.	.	4e/	.	4g/	.	4r	.	.	.	1ryy	1r	.	1r	.	4gg\	.
4c\	.	.	4g/	.	4cc\	.	4c\	et	.	Et	.	.	.	.	.	4cc\	.
8A\L	.	.	4cc\	.	8ff\	.	8.A\	in-	.	in-	.	.	.	.	.	8ff\	.
8A\	.	.	.	.	4ff\	.	.	.	.	.	.	.	.	.	.	4ff\	.
.	.	.	.	.	.	.	16A\	-cli-	.	-cli-	.	.	.	.	.	.	.
8A\	.	.	4cc\	.	.	.	8A\	-na-	.	-na-	.	.	.	.	.	.	.
8A\J	.	.	.	.	8ee-X\	.	8A\	-to	.	-to	.	.	.	.	.	8ee-X\	.
=52	=52	=52	=52	=52	=52	=52	=52	=52	=52	=52	=52	=52	=52	=52	=52	=52	=52
!	!	!	!	!	!LO:SIC:v:s=8qqee-/	!	!	!	!	!	!	!	!	!	!	!LO:SIC:v:s=8qqee-/	!
.	.	.	.	.	8qqee/	.	.	.	.	.	.	.	.	.	.	8qqee/	.
8.B-\L	.	.	4.f/	.	4dd\	.	8.B-\	ca-	.	ca-	1ryy	4r	.	4r	.	4dd\	.
16B-\Jk	.	.	.	.	.	.	16B-\	-pi-	.	-pi-	.	.	.	.	.	.	.
8A\L	.	.	.	.	8dd\L	.	8B-\	-te	.	-te	.	8r	.	8r	.	8dd\L	.
8F\J	.	.	8a/	.	8cc\J	.	8A\	e-	.	e-	.	8a\	.	8cc\	.	8cc\J	.
*	*	*	*	*	*	*	*	*	*	*	*	*custos:a	*	*	*	*	*
!	!	!	!LO:MO:null:mod=8qqa	!	!	!	!	!	!	!	!	!LO:LB:g=original	!	!LO:MO:null:mod=8qqcc	!	!LO:MO:null:mod=8qqccc	!
.	.	.	.	.	8qqcc/	.	.	.	.	.	.	8qqa/	.	.	.	.	.
4BB-/	8 6	.	4g/	.	4b-/	.	4G\	-mi-	.	-mi-	.	4g\	.	4b-\	.	4bb-\	.
4BBn/	7 5	.	4f/	.	4an/	.	4F\	-sit	.	-sit	.	4f\	.	4a\	.	4aan\	.
*	*	*	*	*	*custos:g	*	*	*	*	*	*	*	*	*	*	*	*
!	!	!	!	!	!LO:LB:g=original	!	!	!	!	!	!	!	!	!	!	!	!
=53	=53	=53	=53	=53	=53	=53	=53	=53	=53	=53	=53	=53	=53	=53	=53	=53	=53
4C/	.	.	4e/	.	4g/	.	4E\	spi-	.	spi-	1ryy	4c/	.	4g\	.	4gg\	.
!	!	!	!	!	!	!	!	!	!	!	!	!	!	!	!	!LO:SIC:s=(8aaL	!
4CC/	.	.	8f/L	.	(<8a/L	.	8F\L	-ri-	.	-ri-	.	8f\L	.	8a\L	.	8aa\L	.
!	!	!	!	!	!	!	!	!	!	!	!	!	!	!	!	!LO:SIC:s=8bb-J)	!
.	.	.	8g/J	.	8b-/J)	.	8G\J	.	.	.	.	8g\J	.	8b-\J	.	8bb-\J	.
!	!	!	!	!	!	!	!	!	!	!	!	!	!	!LO:MO:null:mod=8qqb-	!	!	!
.	.	.	.	.	.	.	.	.	.	.	.	8qqg/	.	.	.	.	.
!	!	!	!LO:TX:t=P:problem=mixed beam	!	!LO:TX:t=P:problem=mixed beam	!	!	!	!	!	!	!	!	!	!	!	!
!	!	!	!	!	!LO:SIC:s=8aL|	!	!	!	!	!	!	!	!	!	!	!LO:SIC:s=8aaL|	!
4FF/	.	.	8f|</L	.	8a/L	.	4F\	-tum	.	-tum.	.	4f\	.	4a\	.	8aa\L	.
!	!	!	!	!	!LO:SIC:s=(8ff	!	!	!	!	!	!	!	!	!	!	!LO:SIC:s=(8ff	!
.	.	.	(>8dd\	.	8ff\	.	.	.	.	.	.	.	.	.	.	8ff\	.
!	!	!	!LO:SIC:s=8cc	!	!	!	!	!	!	!	!	!	!	!	!	!	!
4r	.	.	8cc\)	.	8ee\	.	4r	.	.	.	.	4r	.	4r	.	8ee\	.
!	!	!	!LO:SIC:s=8b-J)	!	!LO:SIC:s=8ddJ)	!	!	!	!	!	!	!	!	!	!	!LO:SIC:s=8ddJ)	!
.	.	.	8b-\J	.	8dd\J	.	.	.	.	.	.	.	.	.	.	8dd\J	.
=54	=54	=54	=54	=54	=54	=54	=54	=54	=54	=54	=54	=54	=54	=54	=54	=54	=54
!	!	!	!LO:TX:t=P:problem=mixed beam	!	!	!	!	!	!	!	!	!	!	!	!	!	!
!	!	!	!LO:SIC:s=(8aL	!	!	!	!	!	!	!	!	!	!	!	!	!LO:SIC:s=(8ccL	!
4r	.	.	8a/L	.	(>8cc\L	.	2rBB	.	.	.	1ryy	4r	.	4r	.	8cc\L	.
!	!	!	!LO:SIC:s=8g	!	!	!	!	!	!	!	!	!	!	!	!	!	!
.	.	.	(<8g/	.	8b-\	.	.	.	.	.	.	.	.	.	.	8b-\	.
!	!	!	!	!	!	!	!	!	!	!	!	!	!	!	!	!LO:SIC:s=8a)	!
8r	.	.	8f/)	.	8a\)	.	.	.	.	.	.	8r	.	8r	.	8a\	.
!	!	!	!LO:SIC:s=8ffJ|	!	!LO:SIC:s=8aaJ|	!	!	!	!	!	!	!	!	!	!	!LO:SIC:s=8aaJ|	!
8F\	.	.	8ff\J	.	8aa\J	.	.	.	.	.	.	8f\	.	8a\	.	8aa\J	.
!	!	!	!	!	!LO:SIC:s=16qqbb-	!	!	!	!	!	!	!	!	!	!	!LO:MO:null:mod=16qqbb-	!
.	.	.	16qqgg/	.	8qqbb-/	.	.	.	.	.	.	16qqg/	.	16qqb-/	.	.	.
4c\	.	.	8ff\L	.	8aa\L	.	4r	.	.	.	.	8f\L	.	8a\L	.	8aa\L	.
.	.	.	8ee\J	.	8gg\J	.	.	.	.	.	.	8c\J	.	8g\J	.	8gg\J	.
!	!	!	!LO:LB:g=original	!	!	!	!	!	!	!	!	!	!	!	!	!	!
8r	.	.	4r	.	4r	.	4c\	et	.	Et	.	4r	.	4r	.	4r	.
16c\LL	.	.	.	.	.	.	.	.	.	.	.	.	.	.	.	.	.
16B-\JJ	.	.	.	.	.	.	.	.	.	.	.	.	.	.	.	.	.
!LO:LB:g=original	!	!	!	!	!	!	!LO:LB:g=original	!	!	!	!	!	!	!LO:LB:g=original	!	!	!
=55	=55	=55	=55	=55	=55	=55	=55	=55	=55	=55	=55	=55	=55	=55	=55	=55	=55
4.A\	.	.	4r	.	4r	.	8.A\	in-	.	in-	1ryy	2rg	.	2rg	.	4r	.
.	.	.	.	.	.	.	16A\	-cli-	.	-cli-	.	.	.	.	.	.	.
.	.	.	8r	.	8r	.	8A\	-na-	.	-na-	.	.	.	.	.	8r	.
!	!	!LO:MO:null:mod=!LO&colon;DY&colon;ed=brack	!	!	!	!	!	!	!	!	!	!	!	!	!	!	!LO:MO:null:mod=!LO&colon;DY&colon;ed=brack
!	!	!null	!	!	!	!	!	!	!	!	!	!	!	!	!	!	!null
!	!	!LO:MO:null:mod=p	!	!LO:MO:null:mod=p	!	!LO:MO:null:mod=p	!	!	!	!	!	!	!	!	!	!	!LO:MO:null:mod=p
8A\	.	.	8cc\	.	8ee-X\	.	8A\	-to	.	-to	.	.	.	.	.	8ee-X\	.
!	!	!	!	!LO:DY:a:rj:t=piano	!	!	!	!	!	!	!	!	!	!	!	!	!
!	!	!	!	!LO:MO:mod=.	!	!	!	!	!	!	!	!	!	!	!	!	!
8.B-\L	.	.	4.f/	p	8.dd\L	.	8.B-\	ca-	.	ca-	.	4r	.	4r	.	8.dd\L	.
!	!	!	!	!	!	!LO:DY:b:t=piano	!	!	!	!	!	!	!	!	!	!	!
!	!	!	!	!	!	!LO:MO:mod=.	!	!	!	!	!	!	!	!	!	!	!
16B-\Jk	.	.	.	.	16dd\Jk	p	16B-\	-pi-	.	-pi-	.	.	.	.	.	16dd\Jk	.
8A\L	.	.	.	.	8dd\L	.	8B-\	-te	.	-te	.	8r	.	8r	.	8dd\L	.
!	!	!	!	!	!	!	!	!	!	!	!	!	!LO:MO:null:mod=!LO&colon;DY&colon;ed=brack	!	!LO:MO:null:mod=!LO&colon;DY&colon;ed=brack	!	!
!	!	!	!	!	!	!	!	!	!	!	!	!	!null	!	!null	!	!
!	!	!	!	!	!	!	!	!	!	!	!	!	!LO:MO:null:mod=p	!	!LO:MO:null:mod=p	!	!
8F\J	.	.	8a/	.	8cc\J	.	8A\	e-	.	e-	.	8a\	.	8cc\	.	8cc\J	.
!	!	!	!	!	!LO:LB:g=original	!	!	!	!	!	!	!LO:LB:g=original	!	!	!	!LO:LB:g=original	!
=56	=56	=56	=56	=56	=56	=56	=56	=56	=56	=56	=56	=56	=56	=56	=56	=56	=56
!	!	!	!LO:MO:null:mod=8qqa	!	!LO:SIC:s=8qqcc	!	!	!	!	!	!	!	!	!	!	!LO:MO:null:mod=8qqccc	!
.	.	.	.	.	16qqcc/	.	.	.	.	.	.	8qqa/	.	8qqcc/	.	.	.
4BB-/	8 6	.	4g/	.	4b-/	.	4G\	-mi-	.	-mi-	1ryy	4g\	.	4b-\	.	4bb-\	.
!	!	!LO:MO:null:mod=!LO&colon;DY&colon;ed=brack	!	!LO:MO:null:mod=!LO&colon;DY&colon;ed=brack	!	!	!	!	!	!	!	!	!	!	!	!	!LO:MO:null:mod=!LO&colon;DY&colon;ed=brack
!	!	!null	!	!null	!	!	!	!	!	!	!	!	!	!	!	!	!null
!	!	!LO:MO:null:mod=pp	!	!LO:MO:null:mod=pp	!	!LO:DY:b:t=pianiſsimo	!	!	!	!	!	!	!LO:DY:b:rj:t=pianiſsime	!	!LO:DY:b:t=pianiſsime	!	!LO:MO:null:mod=pp
4BBn/	7 5	.	4f/	.	4a/	pp	4F\	-sit	.	-sit	.	4f\	pp	4a\	pp	4aa\	.
4C/	.	.	4e/	.	4g/	.	4E\	Spi-	.	spi-	.	4c/	.	4g\	.	4gg\	.
!	!	!	!	!	!	!	!	!	!	!	!	!LO:SIC:s=8fL	!	!	!	!	!
4CC/	.	.	8f/L	.	8a/L	.	8F\L	-ri-	.	-ri-	.	(>8f\L	.	8a\L	.	8aa\L	.
!	!	!	!	!	!	!	!	!	!	!	!	!LO:SIC:s=8gJ	!	!	!	!	!
.	.	.	8g/J	.	8b-/J	.	8G\J	.	.	.	.	8g\J)	.	8b-\J	.	8bb-\J	.
*	*	*	*	*	*	*	*custos:F	*	*	*	*	*	*	*	*	*	*
!	!	!	!	!	!	!	!LO:LB:g=original	!	!	!	!	!	!	!	!	!	!
=57	=57	=57	=57	=57	=57	=57	=57	=57	=57	=57	=57	=57	=57	=57	=57	=57	=57
!LO:TX:b:i:t=Finis:mod=	!	!	!LO:TX:b:i:t=Finiſ mpp:mod=	!	!LO:TX:b:i:t=Finis:mod=	!	!	!	!	!	!	!	!	!	!	!LO:TX:b:i:t=Finis [niezydentyfikowane]:mod=	!
!	!	!	!LO:SIC:s=4qqg	!	!LO:SIC:s=4qqb-	!	!	!	!	!	!	!	!	!LO:SIC:s=4qqb-	!	!LO:MO:null:mod=4qqbb-	!
.	.	.	16qqg/	.	(<8qqb-/	.	.	.	.	.	.	4qqg/	.	8qqb-/	.	.	.
!	!	!	!	!	!LO:SIC:s=1a;	!	!LO:SIC:s=1F;	!	!	!	!	!LO:SIC:s=1f;	!	!LO:SIC:s=1a;	!	!LO:SIC:s=1aa;	!
1FF;>	.	.	1f;>	.	1a)	.	1F	-tum	.	-tum.	1ryy	1f	.	1a	.	1aa	.
!	!	!	!LO:MO:mod===	!	!	!	!LO:MO:mod===	!	!	!	!	!	!	!	!	!	!
==	==	==	==;;>	==	==	==	==;;>	==	==	==	==	==	==	==	==	==	==
*-	*-	*-	*-	*-	*-	*-	*-	*-	*-	*-	*-	*-	*-	*-	*-	*-	*-
!!!system-decoration: s1[(g1)][(g2)][(g3)]s8
!!!RDF**kern: > = above
!!!RDF**kern: < = below
!!!RDF**kern: | = vertical stroke
!!!ENC: Andrzej Borzym
!!!END: 2020-05-03
!!!ENC: Mateusz Mrugas
!!!END: 2020-10-10
!!!ENC-modern: Marta Lawrence
!!!END-modern: 2023-09-01
!!!filter-modern: sic -sq | autostem -r | tie -s | shed -e "s/yy//" | shed -k -e "s/([^a-gA-Gn#X-])[<>]/$1/g" | shed -e "s/:rj/:RJ/L" | shed -e "s/LO:DY:(a|b|rj)/LO:dy:$1/L" | shed -e "s/^custos:/Xcustos:/I" | shed -e "s/TX(.*):t=P:/tx$1:t=P:/LG" | shed -e "s/^(\d+[\/\\]right)/$1yy/I; s/^(\d+[\/\\]left)/$1yy/I" | shed -k -e "s/r[a-gA-G]+/r/D" | shed -e "s/LO:N:/LO:n:$1/L" | shed -k -e "s/([#-])[X]/$1/g; s/[n]/$1/g;" | modori -m
